!!!!SEGMENT: pl-wumfc--n68232--016_moniuszko-stanislaw--paria-wyciag-fortepianowy-akt-ii-scena-ii-duet.krn
!!!cenid: 18xx:4146
!!!COM: Moniuszko, Stanisław
!!!COM-rismID: pe30008351
!!!CDT: 1819/05/05-1872/06/04
!!!CNT: Polish
!!!GTL: Paria – wyciąg fortepianowy
!!!OTL: Akt II. Scena II. Duet
!!!OMV: 016
!!!PDT:
!!!AGN:
!!!SMS-siglum: PL-Wumfc
!!!SMS-shelfmark: N68232
!!!SMS-shelfwork: 001-016 G
!!!SMS-variant:
!!!SMS-altvar:
!!!NIFC-rismSourceID: 1001171381
!!!NIFC-rismChildID: 1001171381
!!!NIFC-islandoraID: pl-wumfc:7210
!!!URL-pdf-islandora: https://repozytorium.nifc.pl/islandora/object/pl-wumfc%3A7210/datastream/PDF/view
!!!URL-scan: https://polish.musicsources.pl/pl/lokalizacje/galeria/druki-muzyczne/12634/1 @EN{Scan on Polish Music Sources Website} @PL{Skany w portalu Dziedzictwo Muzyki Polskiej w otwartym dostępie}
!!!ONB-nifc: UWAGA: str. 61-65. Uwaga: proszę w pliku umieszczać obsadę, która występuje tylko w danej części.
!!!AIN: 2 piano 2 vox
!!!key:
**kern	**fing	**kern	**fing	**dynam	**kern	**text	**text	**dynam	**kern	**text	**text	**dynam
*part4	*part4	*part3	*part3	*part3	*part2	*part2	*part2	*part2	*part1	*part1	*part1	*part1
*staff4	*	*staff3	*	*	*staff2	*staff2	*staff2	*	*staff1	*staff1	*staff1	*
*I"[Fortepian.]	*	*I"[Fortepian.]	*	*	*I"Idamor. Idamor.	*	*	*	*I"Neala. Neala.	*	*	*
*I'[pf]	*	*I'[pf]	*	*	*I'I.	*	*	*	*I'N.	*	*	*
*ICklav	*	*ICklav	*	*	*ICvox	*	*	*	*ICvox	*	*	*
*Ipiano	*	*Ipiano	*	*	*Ivox	*	*	*	*Ivox	*	*	*
*clefF4	*	*clefG2	*	*	*clefG2	*	*	*	*clefG2	*	*	*
*k[f#]	*	*k[f#]	*	*	*k[f#]	*	*	*	*k[f#]	*	*	*
*G:	*	*G:	*	*	*G:	*	*	*	*G:	*	*	*
*M4/4	*	*M4/4	*	*	*M4/4	*	*	*	*M4/4	*	*	*
*met(c)	*	*met(c)	*	*	*met(c)	*	*	*	*met(c)	*	*	*
=1	=1	=1	=1	=1	=1	=1	=1	=1	=1	=1	=1	=1
!	!	!	!	!	!LO:TX:a:B:t=Allegro.	!	!	!	!	!	!	!
8GG\L	.	8r	.	p	8a/	ła-	ca-	.	1ryy	.	.	.
8D\ 8B	.	(16b/LL	.	.	8g/	-cza.	-no.	.	.	.	.	.
.	.	16g/JJ	.	.	.	.	.	.	.	.	.	.
8D\ 8B	.	8.ff#^\L	.	.	4r	.	.	.	.	.	.	.
8D\J 8B	.	.	.	.	.	.	.	.	.	.	.	.
.	.	16ee\Jk	.	.	.	.	.	.	.	.	.	.
!	!	!LO:TX:b:t=cre_scen_do:dur=5e11s:ext=ud:problem:text with extention lines	!	!	!	!	!	!	!	!	!	!
8BB\ 8G	.	8dd'\)	.	<	2r	.	.	.	.	.	.	.
8G\L 8d	.	(16dd\LL	.	.	.	.	.	.	.	.	.	.
.	.	16b\JJ	.	.	.	.	.	.	.	.	.	.
8G\ 8d	.	8.aa^\L	.	.	.	.	.	.	.	.	.	.
8G\J 8d	.	.	.	.	.	.	.	.	.	.	.	.
.	.	16gg\Jk)	.	.	.	.	.	.	.	.	.	.
=2	=2	=2	=2	=2	=2	=2	=2	=2	=2	=2	=2	=2
8AA/	.	(8gg\	.	.	1r	.	.	.	1ryy	.	.	.
8E\L 8c	.	16ff#\LL	.	.	.	.	.	.	.	.	.	.
.	.	16ee\JJ	.	.	.	.	.	.	.	.	.	.
8E\ 8c	.	8.ddd^\L	.	.	.	.	.	.	.	.	.	.
8E\J 8c	.	.	.	.	.	.	.	.	.	.	.	.
.	.	16ccc\Jk)	.	.	.	.	.	.	.	.	.	.
8D\L	.	(16bb\LL	.	.	.	.	.	.	.	.	.	.
.	.	16aa\	.	.	.	.	.	.	.	.	.	.
8A\J 8c	.	16gg\	.	.	.	.	.	.	.	.	.	.
.	.	16ff#\JJ	.	.	.	.	.	.	.	.	.	.
8C\L	.	8.eee^\L	.	[[	.	.	.	.	.	.	.	.
8F#\J 8A	.	.	.	.	.	.	.	.	.	.	.	.
.	.	16eee-X\Jk)	.	.	.	.	.	.	.	.	.	.
=3	=3	=3	=3	=3	=3	=3	=3	=3	=3	=3	=3	=3
8BB\L 8D 8G	.	8ddd^\L	.	f	1r	.	.	.	1ryy	.	.	.
8BB\ 8D 8G	.	(16ccc\L	.	.	.	.	.	.	.	.	.	.
.	.	16bb\JJ	.	.	.	.	.	.	.	.	.	.
8BB\ 8D#X 8G	.	16aa#X\LL	.	.	.	.	.	.	.	.	.	.
.	.	16bb\	.	.	.	.	.	.	.	.	.	.
8BB\J 8D# 8G	.	16ccc\	.	.	.	.	.	.	.	.	.	.
.	.	16bb\JJ	.	.	.	.	.	.	.	.	.	.
8C\L 8E 8G	.	16aan\LL	.	.	.	.	.	.	.	.	.	.
.	.	16gg\	.	.	.	.	.	.	.	.	.	.
8C\ 8E 8G#X	.	16ff#\	.	.	.	.	.	.	.	.	.	.
.	.	16ee\JJ	.	.	.	.	.	.	.	.	.	.
8C\ 8E 8A	.	16dd#X\LL	.	.	.	.	.	.	.	.	.	.
.	.	16ee\	.	.	.	.	.	.	.	.	.	.
8C\J 8E 8A#X	.	16ff#\	.	.	.	.	.	.	.	.	.	.
.	.	16ee\JJ)	.	.	.	.	.	.	.	.	.	.
!!LO:LB:g=original	!	!	!	!	!	!	!	!	!	!
=4	=4	=4	=4	=4	=4	=4	=4	=4	=4	=4	=4	=4
8BB\L	.	(16dd#X\LL	.	.	1ryy	.	.	.	1r	.	.	.
.	.	16bb\)	.	.	.	.	.	.	.	.	.	.
8D#X\J 8F# 8B	.	(16bb\	.	.	.	.	.	.	.	.	.	.
.	.	16dd#\JJ)	.	.	.	.	.	.	.	.	.	.
8E\L	.	(16ddn\LL	.	.	.	.	.	.	.	.	.	.
.	.	16bb\)	.	.	.	.	.	.	.	.	.	.
8G#X\J 8B	.	(16bb\	.	.	.	.	.	.	.	.	.	.
.	.	16dd\JJ)	.	.	.	.	.	.	.	.	.	.
8AA\L	.	(16cc#X\LL	.	.	.	.	.	.	.	.	.	.
.	.	16aa\)	.	.	.	.	.	.	.	.	.	.
8Gn\J 8A	.	(16aa\	.	.	.	.	.	.	.	.	.	.
.	.	16cc#\JJ)	.	.	.	.	.	.	.	.	.	.
8Dn\L	.	(16ccn\LL	.	.	.	.	.	.	.	.	.	.
.	.	16aa\)	.	.	.	.	.	.	.	.	.	.
8F#\J 8A	.	(16aa\	.	.	.	.	.	.	.	.	.	.
.	.	16cc\JJ)	.	.	.	.	.	.	.	.	.	.
=5	=5	=5	=5	=5	=5	=5	=5	=5	=5	=5	=5	=5
8GG/	.	16b\LL	.	.	1ryy	.	.	.	2r	.	.	.
.	.	16gg\	.	.	.	.	.	.	.	.	.	.
((8B^<\L 8d#X	.	16ff#\	.	.	.	.	.	.	.	.	.	.
.	.	16a\JJ	.	.	.	.	.	.	.	.	.	.
8c\)) 8e	.	16g\LL	.	.	.	.	.	.	.	.	.	.
.	.	16ee\	.	.	.	.	.	.	.	.	.	.
((8G#X^<\J 8B	.	16ddn\	.	.	.	.	.	.	.	.	.	.
.	.	16fn\JJ	.	.	.	.	.	.	.	.	.	.
!	!	!	!	!	!	!	!	!	!LO:TX:a:t=Neala. (wbiega radosna)	!	!	!
!	!	!	!	!	!	!	!	!	!LO:TX:a:i:t=Neala. (accorrendo giuliva)	!	!	!
8A\L)) 8c	.	16e/LL	.	.	.	.	.	.	4r	.	.	.
.	.	16cc/	.	.	.	.	.	.	.	.	.	.
(8E^<\ 8G#X	.	16b/	.	.	.	.	.	.	.	.	.	.
.	.	16dn/JJ	.	.	.	.	.	.	.	.	.	.
8A\)	.	16c#X/LL	.	.	.	.	.	.	8r	.	.	.
.	.	16gn/	.	.	.	.	.	.	.	.	.	.
8Dn\J 8A 8cn	.	16f#X/	.	.	.	.	.	.	8dd\	I-	I-	.
.	.	16dd/JJ	.	.	.	.	.	.	.	.	.	.
=6	=6	=6	=6	=6	=6	=6	=6	=6	=6	=6	=6	=6
*	*	*^	*	*	*	*	*	*	*	*	*	*
8B^\L	.	16g/LL	2ryy	.	.	1ryy	.	.	.	2gg\	-da-	-da-	.
.	.	16dd/	.	.	.	.	.	.	.	.	.	.	.
16A\L	.	16cc/	.	.	.	.	.	.	.	.	.	.	.
16G\JJ	.	16b/JJ	.	.	.	.	.	.	.	.	.	.	.
16F#\LL	.	16a/LL	.	.	.	.	.	.	.	.	.	.	.
16E\	.	16g/	.	.	.	.	.	.	.	.	.	.	.
16D\	.	16f#/	.	.	.	.	.	.	.	.	.	.	.
16C\JJ	.	16e/JJ	.	.	.	.	.	.	.	.	.	.	.
!	!	!LO:TX:a:t=V.H.	!	!	!	!	!	!	!	!	!	!	!
!	!	!LO:TX:b:t=V.I.	!	!	!	!	!	!	!	!	!	!	!
2BB^>/	.	4.g/	2d#X\	.	.	.	.	.	.	8dd#X\	-mor!	-mor!	.
.	.	.	.	.	.	.	.	.	.	8r	.	.	.
.	.	.	.	.	.	.	.	.	.	8.dd#\	więc	Dun-	.
.	.	8f#/	.	.	.	.	.	.	.	.	.	.	.
.	.	.	.	.	.	.	.	.	.	16dd#\	dziś	-queen	.
!!LO:LB:g=original	!	!	!	!	!	!	!	!	!	!	!
=7	=7	=7	=7	=7	=7	=7	=7	=7	=7	=7	=7	=7	=7
8C/	.	(<16d#X\LL	2ryy	.	.	1ryy	.	.	.	4.ff#\	jesz-	tr'og-	.
.	.	16e/	.	.	.	.	.	.	.	.	.	.	.
8r	.	16a/	.	.	.	.	.	.	.	.	.	.	.
.	.	16cc/JJ	.	.	.	.	.	.	.	.	.	.	.
4r	.	8ee\)	.	.	.	.	.	.	.	.	.	.	.
.	.	8r	.	.	.	.	.	.	.	8ee\	-scze	-gi	.
!	!	!	!	!	!	!	!	!	!	!LO:TX:a:i:t=rallent.	!	!	!
2DD;/ 2D	.	2A;/ 2c 2f#	2ryy	.	sfp	.	.	.	.	8ddn\	żo-	ci u-	.
.	.	.	.	.	.	.	.	.	.	8cc\	-ną	-ni-	.
.	.	.	.	.	.	.	.	.	.	8a/	twą	-ra	.
.	.	.	.	.	.	.	.	.	.	8f#/	zo-	l'al-	.
*	*	*v	*v	*	*	*	*	*	*	*	*	*	*
=8	=8	=8	=8	=8	=8	=8	=8	=8	=8	=8	=8	=8
8GG/	.	8G/ 8B 8g	.	.	1ryy	.	.	.	4a/	-sta-	-ta-	.
!LO:TX:a:t=v-iii.	!	!LO:TX:b:t=cantabile	!	!	!	!	!	!	!	!	!	!
8D\L	.	8B/L 8g	.	p	.	.	.	.	.	.	.	.
8E\	.	8B/ 8g	.	.	.	.	.	.	4g/	-nę	-re!	.
8D\J	.	8B/J 8g	.	.	.	.	.	.	.	.	.	.
4B\	.	8d/L 8g	.	.	.	.	.	.	4r	.	.	.
.	.	8d/ 8g	.	.	.	.	.	.	.	.	.	.
4B\	.	8d/ 8g	.	.	.	.	.	.	4dd\	I	Ep-	.
.	.	8d/J 8g	.	.	.	.	.	.	.	.	.	.
=9	=9	=9	=9	=9	=9	=9	=9	=9	=9	=9	=9	=9
*	*	*^	*	*	*	*	*	*	*	*	*	*
!	!	!	!	!	!	!	!	!	!	!	!	!	!LO:DY:a
2GG\	.	8r	[2B^\	.	.	1ryy	.	.	.	4.gg\	cze-	-pur	p
.	.	8e/L 8g	.	.	.	.	.	.	.	.	.	.	.
.	.	8e/ 8g	.	.	.	.	.	.	.	.	.	.	.
.	.	8e/J 8g	.	.	.	.	.	.	.	8g/	-mu	di	.
2ryy	.	8e/ 8g	8B\L]	.	.	.	.	.	.	4g/	blask	gio-	.
.	.	8c#X/L 8e 8g	(<8B-X\	.	.	.	.	.	.	.	.	.	.
.	.	8c#/ 8e 8g	8G</	.	.	.	.	.	.	8a/L	ros-	-ja il	.
.	.	8c#/J 8e 8g	8E</J)	.	.	.	.	.	.	8a#X/J	.	.	.
*	*	*v	*v	*	*	*	*	*	*	*	*	*	*
=10	=10	=10	=10	=10	=10	=10	=10	=10	=10	=10	=10	=10
*^	*	*	*	*	*	*	*	*	*	*	*	*
(8E/L	4GG\	.	8A#X/L 8c#X	.	<	1ryy	.	.	.	2b\	-ko-	rag-	.
8D/	.	.	8Bn/ 8d 8g	.	.	.	.	.	.	.	.	.	.
8G/	4rGG	.	8B/ 8d 8g	.	.	.	.	.	.	.	.	.	.
8B/J)	.	.	8d/J 8g	.	[	.	.	.	.	.	.	.	.
(4.e^/	2rGG	.	8r	.	.	.	.	.	.	8g/	-szy	-gio	.
.	.	.	8g/L 8b	.	.	.	.	.	.	8g/	nie	non	.
.	.	.	8g/ 8b	.	.	.	.	.	.	8b\	o-	ve-	.
8d/)	.	.	8g/J 8b	.	.	.	.	.	.	8dd\	-pro-	-do in	.
*v	*v	*	*	*	*	*	*	*	*	*	*	*	*
!!LO:LB:g=original	!	!	!	!	!	!	!	!	!	!
=11	=11	=11	=11	=11	=11	=11	=11	=11	=11	=11	=11	=11
*	*	*^	*	*	*	*	*	*	*	*	*	*
[<2GG\	.	8r	[2d^\	.	.	1ryy	.	.	.	[2ee\	-mie-	vol-	.
.	.	8e/L 8g 8b-X	.	.	.	.	.	.	.	.	.	.	.
.	.	8e/ 8g 8b-	.	.	.	.	.	.	.	.	.	.	.
.	.	8e/J 8g 8b-	.	.	.	.	.	.	.	.	.	.	.
!	!	!LO:TX:t=P:problem:mixed beam	!	!	!	!	!	!	!	!	!	!	!
8GG\]	.	8e/ 8g 8b-	8d\L]	.	.	.	.	.	.	8ee\]	.	.	.
8rGG	.	8e/L 8g	8c#X</	.	.	.	.	.	.	8cc#X\	-ni	-to a	.
4rGG	.	8e/ 8g	8B-X</	.	.	.	.	.	.	8dd\	two-	te	.
.	.	8e/J 8g	8G</J	.	.	.	.	.	.	8ee\	-ich	bril-	.
=12	=12	=12	=12	=12	=12	=12	=12	=12	=12	=12	=12	=12	=12
<N(8GG\L 8G	.	8r	2ryy	.	.	1ryy	.	.	.	8a/	lic?	-lar.	.
*	*	*	*	*	*	*	*	*	*	*clefG2	*	*	*
!	!	!	!	!	!	!	!	!	!	!LO:TX:a:t=Idamor.	!	!	!
!	!	!	!	!	!	!	!	!	!	!LO:TX:a:i:t=Idamor.	!	!	!
8F#\	.	8c/L 8a	.	.	.	.	.	.	.	8f#/	Więc	Tu	.
8A\	.	8c/ 8d	.	.	.	.	.	.	.	8a/	ty	dun-	.
8c\J	.	8d/J 8a	.	.	.	.	.	.	.	8cc\	mnie	-que	.
8r	.	4f#/N)<	4e-X\)	.	.	.	.	.	.	4ee-X\	ko-	m'a-	.
8A\L 8c	.	.	.	.	.	.	.	.	.	.	.	.	.
8A\ 8e-X	.	4f#/	4f#\	.	.	.	.	.	.	8ee-\	-chasz?	-mi?	.
8A\J 8d	.	.	.	.	.	.	.	.	.	16r	.	.	.
*	*	*	*	*	*	*	*	*	*	*clefG2	*	*	*
!	!	!	!	!	!	!	!	!	!	!LO:TX:a:t=Neala.	!	!	!
!	!	!	!	!	!	!	!	!	!	!LO:TX:a:i:t=Neala.	!	!	!
.	.	.	.	.	.	.	.	.	.	16dd\	Nie-	In-	.
=13	=13	=13	=13	=13	=13	=13	=13	=13	=13	=13	=13	=13	=13
!	!	!LO:TX:t=P:problem: 2g i 8r bracketed notes	!	!	!	!	!	!	!	!	!	!	!
4GG\	.	[>2g^>/	8r<	.	.	1ryy	.	.	.	2dd\	-wdzięcz-	-gra-	.
.	.	.	8G</L 8B< 8d<	.	.	.	.	.	.	.	.	.	.
4r	.	.	8G</ 8B< 8d<	.	.	.	.	.	.	.	.	.	.
.	.	.	8G</J 8B< 8d<	.	.	.	.	.	.	.	.	.	.
4EE\ 4E	.	8g/L]	8r<	.	.	.	.	.	.	8g/	-ny!	-to!	.
.	.	8f#/	8G</L 8B<	.	.	.	.	.	.	8r	.	.	.
4r	.	8e/	8G</ 8B<	.	.	.	.	.	.	8g/	czy	S'io	.
.	.	8d/J	8G</J 8B<	.	.	.	.	.	.	8b\	cię	pur	.
!!LO:PB:g=original	!	!	!	!	!	!	!	!	!	!	!
=14	=14	=14	=14	=14	=14	=14	=14	=14	=14	=14	=14	=14	=14
4EE/ 4E	.	(8d/L	4.B-X\	.	.	1ryy	.	.	.	2b-X\	ko-	t'a-	.
.	.	8g/	.	.	.	.	.	.	.	.	.	.	.
8r	.	8b-X/J)	.	.	.	.	.	.	.	.	.	.	.
8EE/ 8E	.	8c#X/	8c#\	.	.	.	.	.	.	.	.	.	.
2DD#X/ 2D#X	.	(8cn/L	4.A\	.	.	.	.	.	.	8a/	-cham	-mi	.
.	.	8f#/	.	.	.	.	.	.	.	4ff#\	py-	chie-	.
.	.	8a/J)	.	.	.	.	.	.	.	.	.	.	.
.	.	8Bn/	8B\	.	.	.	.	.	.	8a/	-tasz	-di a-	.
*	*	*v	*v	*	*	*	*	*	*	*	*	*	*
=15	=15	=15	=15	=15	=15	=15	=15	=15	=15	=15	=15	=15
*^	*	*	*	*	*	*	*	*	*	*	*	*
8E/L	4.EE\	.	8G/L 8B	.	.	1ryy	.	.	.	4g/	mnie?	-me.	.
8BB/	.	.	8B/ 8e 8g	.	.	.	.	.	.	.	.	.	.
8E/	.	.	8B/ 8e 8g	.	.	.	.	.	.	4r	.	.	.
8G/J	8rGG	.	8B/J 8e 8g	.	.	.	.	.	.	.	.	.	.
4B/	2ryy	.	8r	.	.	.	.	.	.	8r	.	.	.
.	.	.	8e/L 8g 8b	.	.	.	.	.	.	8g/	O-	Dub-	.
4e^\	.	.	8g/	.	.	.	.	.	.	8b\	-tóż	-bio a	.
.	.	.	8g/J 8b 8ee	.	.	.	.	.	.	8ee\	twe	te in	.
=16	=16	=16	=16	=16	=16	=16	=16	=16	=16	=16	=16	=16	=16
*	*	*	*^	*	*	*	*	*	*	*	*	*	*
2e^/	2F#\	.	8b/L	2ryy	.	<	1ryy	.	.	.	8.cc\	ser-	cor-	.
.	.	.	8c/ 8a	.	.	.	.	.	.	.	.	.	.	.
.	.	.	.	.	.	.	.	.	.	.	16b\	-ce	-gia	.
.	.	.	8a/ 8cc	.	.	.	.	.	.	.	8a/	nie-	an-	.
.	.	.	8a/J 8cc 8ee	.	.	[	.	.	.	.	8cc\	-po-	-ni-	.
8rB	2BB\	.	(4.ff#/	8rg	.	>	.	.	.	.	4.b\	-ko-	-dar	.
8A/L 8d#X	.	.	.	8f#\L	.	.	.	.	.	.	.	.	.	.
8B/	.	.	.	8f#\ 8b	.	.	.	.	.	.	.	.	.	.
8A/J	.	.	8dd#X/)	8f#\J	.	]]	.	.	.	.	8f#/	-i	po-	.
!!LO:LB:g=original	!	!	!	!	!	!	!	!	!	!	!	!
=17	=17	=17	=17	=17	=17	=17	=17	=17	=17	=17	=17	=17	=17	=17
*	*	*	*	*^	*	*	*	*	*	*	*	*	*	*
>N(8A/L	4E\	.	(2ee/	8rf	4.ryy	.	.	8r	.	.	.	8g/	się,	-te!	.
!	!	!	!	!	!	!	!	!LO:TX:a:t=Idamor.	!	!	!	!	!	!	!
8G/	.	.	.	8e\L 8b	.	.	.	8g/	Lecz	Del-	.	8r	.	.	.
!	!	!	!	!	!	!	!	!LO:TX:a:i:t=Idamor.	!	!	!	!	!	!	!
8B/	4rBB	.	.	8e\J 8g	.	.	.	8b\	czy	-la	.	4r	.	.	.
8e>\J 8g>	.	.	.	8ryy	8b/)	.	.	8ee\	mię	mia	.	.	.	.	.
2ryy	8E\L	.	8ee/L	8g\N)<	2ryy	.	.	4.gg\	ko-	fiam-	.	2r	.	.	.
.	8B\	.	8e/ 8g 8b	8r	.	.	.	.	.	.	.	.	.	.	.
.	8E\	.	8g/ 8b 8ee	4ryy	.	.	.	.	.	.	.	.	.	.	.
.	8d\J 8e	.	8gg/J	.	.	.	.	8ee\	-chasz	-ma al	.	.	.	.	.
*	*	*	*	*v	*v	*	*	*	*	*	*	*	*	*	*
=18	=18	=18	=18	=18	=18	=18	=18	=18	=18	=18	=18	=18	=18	=18
8rB	1AA	.	(2.b/ 2.gg	8cc#X\L	.	.	4cc#X\	tak	par	.	2r	.	.	.
(8G/L	.	.	.	8ee\	.	.	.	.	.	.	.	.	.	.
8E/	.	.	.	8g\	.	.	8r	.	.	.	.	.	.	.
8d/J	.	.	.	8b\J	.	.	8ee\	jak	e	.	.	.	.	.
4c#X/)	.	.	.	8b\L	.	.	4ee\	ja	for-	.	4r	.	.	.
.	.	.	.	8a\	.	.	.	.	.	.	.	.	.	.
4A/	.	.	4cc#/)	8g\	.	.	8.a/	ko-	-te il	.	8r	.	.	.
.	.	.	.	8e\J	.	.	.	.	.	.	8cc#X\	I-	I-	.
.	.	.	.	.	.	.	16a/	-cham	tuo a-	.	.	.	.	.
*v	*v	*	*	*	*	*	*	*	*	*	*	*	*	*
=19	=19	=19	=19	=19	=19	=19	=19	=19	=19	=19	=19	=19	=19
8DD/	.	(4ee/	(4g\	.	.	4a/	cię?	-mor?	.	4ee\	-da-	-da-	.
4D\	.	.	.	.	.	.	.	.	.	.	.	.	.
.	.	8dd/L)	8f#\L)	.	.	4r	.	.	.	8dd\	-mor!	-mor!	.
8D\	.	8a/J	8fn\J	.	.	.	.	.	.	8a/	ty	qual	.
8AA\L	.	(4cc/	(4e\	.	.	2r	.	.	.	4cc\	wąt-	te-	.
8A\J	.	.	.	.	.	.	.	.	.	.	.	.	.
8BB\L	.	8b/L)	8d#X\L)	.	.	.	.	.	.	8b\	-pisz?	-ma?	.
8A\J	.	8f/J	8d#\J	.	.	.	.	.	.	8r	.	.	.
!!LO:LB:g=original	!	!	!	!	!	!	!	!	!	!	!
=20	=20	=20	=20	=20	=20	=20	=20	=20	=20	=20	=20	=20	=20
*^	*	*	*	*	*	*	*	*	*	*	*	*	*
!	!	!	!	!	!	!	!LO:TX:a:t=Idamor.	!	!	!	!	!	!	!
4ryy	8FF#\L	.	4c/ 4e 4a	2ryy	.	.	4cc\	Po-	Dim-	.	1ryy	.	.	.
!	!	!	!	!	!	!	!LO:TX:a:i:t=Idamor.	!	!	!	!	!	!	!
.	8F#\J	.	.	.	.	.	.	.	.	.	.	.	.	.
4ryy	4rGG	.	8B</L 8g	.	.	.	8b\	-wiedz	-mi	.	.	.	.	.
.	.	.	8A</J 8f#	.	.	.	8a/	nie-	ce-	.	.	.	.	.
4A/	8BB\L	.	(4cc/	8d#X\L	.	.	4a/	-biań-	-le-	.	.	.	.	.
.	8F#\J	.	.	8d#\J	.	.	.	.	.	.	.	.	.	.
8G/L	4rGG	.	8b/L)	8r	.	.	8g/	-ska	-ste	.	.	.	.	.
8F#/J	.	.	8a/J	8d#\	.	.	8f#/	i-	crea-	.	.	.	.	.
*	*	*	*v	*v	*	*	*	*	*	*	*	*	*	*
=21	=21	=21	=21	=21	=21	=21	=21	=21	=21	=21	=21	=21	=21
!	!	!	!LO:TX:a:t=63	!	!	!	!	!	!	!	!	!	!
1E	(4E\	.	8e/ 8g	.	pp	4a/	-sto-	-tu-	.	1ryy	.	.	.
.	.	.	4G/ 4e 4g	.	.	.	.	.	.	.	.	.	.
.	4BB\	.	.	.	.	4g/	-to,	-ra,	.	.	.	.	.
.	.	.	4G/ 4e 4g	.	.	.	.	.	.	.	.	.	.
.	4C\	.	.	.	.	4r	.	.	.	.	.	.	.
.	.	.	4G/ 4e 4g	.	.	.	.	.	.	.	.	.	.
.	4D\)	.	.	.	.	4ee\	Czy	Se	.	.	.	.	.
.	.	.	[8G/ [8e [8g	.	.	.	.	.	.	.	.	.	.
=22	=22	=22	=22	=22	=22	=22	=22	=22	=22	=22	=22	=22	=22
1E	(4E\	.	8G/] 8e] 8g]	.	.	4.ee\	ni-	nel	.	1ryy	.	.	.
.	.	.	4G/ 4e 4g	.	.	.	.	.	.	.	.	.	.
.	4GG\	.	.	.	.	.	.	.	.	.	.	.	.
.	.	.	4G/ 4e 4g	.	.	8ee\	-gdy	tuo	.	.	.	.	.
.	4AA\	.	.	.	.	4.ee\	w ser-	cor	.	.	.	.	.
.	.	.	4G/ 4e 4g	.	.	.	.	.	.	.	.	.	.
.	4BB\)	.	.	.	.	.	.	.	.	.	.	.	.
.	.	.	[8G/ [8e [8g	.	.	8ee\	-cu	giam-	.	.	.	.	.
=23	=23	=23	=23	=23	=23	=23	=23	=23	=23	=23	=23	=23	=23
1E	(4C\	.	8G/] 8e] 8g]	.	.	2g/	twem	-mai	.	1ryy	.	.	.
.	.	.	4G/ 4e 4g	.	.	.	.	.	.	.	.	.	.
.	4EE\	.	.	.	.	.	.	.	.	.	.	.	.
.	.	.	4G/ 4e 4g	.	.	.	.	.	.	.	.	.	.
.	4FF#\	.	.	.	.	4g/	nie	non	.	.	.	.	.
.	.	.	4G/ 4e 4g	.	.	.	.	.	.	.	.	.	.
.	4GG\)	.	.	.	.	4g/	bu-	ha	.	.	.	.	.
.	.	.	8G/ 8e 8g	.	.	.	.	.	.	.	.	.	.
!!LO:LB:g=original	!	!	!	!	!	!	!	!	!	!	!
=24	=24	=24	=24	=24	=24	=24	=24	=24	=24	=24	=24	=24	=24
*	*	*	*^	*	*	*	*	*	*	*	*	*	*
(4AA/	(2AAA\	.	8e/ 8f#	2c\	.	.	2f#/	-dzi-	de-	.	1ryy	.	.	.
.	.	.	[<4e/ [4f#	.	.	<	.	.	.	.	.	.	.	.
4EE/	.	.	.	.	.	.	.	.	.	.	.	.	.	.
.	.	.	8e/L] 8f#]	.	.	.	.	.	.	.	.	.	.	.
4BB/	2BBB\)	.	8e/J 8g	2B\	.	.	4.g/	-ło	-sto	.	.	.	.	.
.	.	.	4e/ 4g	.	.	.	.	.	.	.	.	.	.	.
4EE/)	.	.	.	.	.	.	.	.	.	.	.	.	.	.
.	.	.	8e/ 8g	.	.	[[	8g/	li-	pie-	.	.	.	.	.
*v	*v	*	*	*	*	*	*	*	*	*	*	*	*	*
=25	=25	=25	=25	=25	=25	=25	=25	=25	=25	=25	=25	=25	=25
(4CC/ 4C	.	(2.a/	8A\ 8e	.	.	2.a/	-to-	-ta-	.	1ryy	.	.	.
.	.	.	4A\ 4e	.	.	.	.	.	.	.	.	.	.
4EEE/ 4EE	.	.	.	.	.	.	.	.	.	.	.	.	.
.	.	.	4A\ 4e	.	.	.	.	.	.	.	.	.	.
4FFF#/ 4FF#	.	.	.	.	.	.	.	.	.	.	.	.	.
.	.	.	4A\ 4e	.	.	.	.	.	.	.	.	.	.
4GGG/) 4GG	.	8g/L	.	.	.	8g/L	-ści	-de	.	.	.	.	.
.	.	8f#/J)	8A\ 8e	.	.	8f#/J	.	.	.	.	.	.	.
=26	=26	=26	=26	=26	=26	=26	=26	=26	=26	=26	=26	=26	=26
*^	*	*	*	*	*	*	*	*	*	*	*	*	*
(4AA/	(2AAA\	.	4.f#/	8A\ 8e	.	<	4.f#/	To	l'av-	.	1ryy	.	.	.
.	.	.	.	4A\ 4e	.	.	.	.	.	.	.	.	.	.
4EE/	.	.	.	.	.	.	.	.	.	.	.	.	.	.
.	.	.	8f#/	8A\ 8e	.	.	8f#/	nie-	-vi-	.	.	.	.	.
4BB/	2BBB\)	.	4.g/	8B\ 8e	.	.	4.g/	-szczę-	-li-	.	.	.	.	.
.	.	.	.	4B\ 4e	.	.	.	.	.	.	.	.	.	.
4EE/)	.	.	.	.	.	.	.	.	.	.	.	.	.	.
.	.	.	8g/	8B\ 8e	.	[[	8g/	-sne	-ta	.	.	.	.	.
*v	*v	*	*	*	*	*	*	*	*	*	*	*	*	*
=27	=27	=27	=27	=27	=27	=27	=27	=27	=27	=27	=27	=27	=27
(4CC/ 4C	.	[2b/	8B\L 8e	.	>	[2b\	ple-	stir-	.	1ryy	.	.	.
.	.	.	8B\ 8e	.	.	.	.	.	.	.	.	.	.
4FFF#/ 4FF#	.	.	8A\ 8e	.	.	.	.	.	.	.	.	.	.
.	.	.	8A\J 8e	.	.	.	.	.	.	.	.	.	.
4GGG/ 4GG	.	8b/L]	8c\L 8e	.	.	8b/L]	.	.	.	.	.	.	.
.	.	8a/	8c\ 8e	.	.	8a/J	.	.	.	.	.	.	.
4AAA/) 4AA	.	8g/	8B\ 8e	.	]	8g/	-mie	-pe	.	.	.	.	.
.	.	8f#/J	8A\J 8c	.	.	8f#/	rzu-	a	.	.	.	.	.
!!LO:PB:g=original	!	!	!	!	!	!	!	!	!	!	!
=28	=28	=28	=28	=28	=28	=28	=28	=28	=28	=28	=28	=28	=28
*^	*	*	*	*	*	*	*	*	*	*	*	*	*
8G/L 8B	8BBB\ 8BB	.	4e/	2ryy	.	.	4e/	-co-	cui	.	1ryy	.	.	.
(8G/ 8B	8rGG	.	.	.	.	.	.	.	.	.	.	.	.	.
8F#/) 8B	8BBB\ 8BB	.	4d#X/	.	.	.	4d#X/	-ne	la	.	.	.	.	.
8F#/J 8B	8rGG	.	.	.	.	.	.	.	.	.	.	.	.	.
!	!	!	!	!	!	!	!	!	!	!LO:DY:a	!	!	!	!
2ryy	(4FFn\ 4Fn	.	8A/L 8dn	8ryy	.	<	8dn/L	na	sor-	<	.	.	.	.
.	.	.	8fn/	4A\ 4d	.	.	8fn/J	.	.	.	.	.	.	.
.	4D\	.	8a/	.	.	.	8a\L	świat	-te	.	.	.	.	.
.	.	.	8dd/J	8f\ 8a	.	[[	8dd\J	.	.	[[	.	.	.	.
*v	*v	*	*	*	*	*	*	*	*	*	*	*	*	*
=29	=29	=29	=29	=29	=29	=29	=29	=29	=29	=29	=29	=29	=29
4BB/)	.	(2dd/	8rd	.	>	2dd^\	po-	du-	.	1ryy	.	.	.
.	.	.	4fn\ 4a	.	.	.	.	.	.	.	.	.	.
(4BBB/ 4BB	.	.	.	.	.	.	.	.	.	.	.	.	.
.	.	.	8f\ 8a	.	.	.	.	.	.	.	.	.	.
4CC/ 4C	.	4cc/	8e\L 8a	.	.	4cc\	-to,	-ra	.	.	.	.	.
.	.	.	8e\ 8a	.	]	.	.	.	.	.	.	.	.
4DD/ 4D	.	4b/)	8d\ 8f	.	.	4b\	By	in-	.	.	.	.	.
.	.	.	8d\J 8f	.	.	.	.	.	.	.	.	.	.
=30	=30	=30	=30	=30	=30	=30	=30	=30	=30	=30	=30	=30	=30
*^	*	*	*	*	*	*	*	*	*	*	*	*	*
8EE/) 8E	2ryy	.	(4a/	8rc	.	.	(4a/	wlec	-giun-	.	1ryy	.	.	.
8r	.	.	.	8c\ 8e	.	.	.	.	.	.	.	.	.	.
(4E\	.	.	4g#X/)	8rc	.	<	4g#X/)	.	.	.	.	.	.	.
.	.	.	.	8B\ 8e	.	.	.	.	.	.	.	.	.	.
!	!	!	!	!	!	!	!	!	!	!LO:DY:a	!	!	!	!
4Fn\	4ryy	.	(>8B/L 8g#	2ryy	.	.	8g#/L	na	-ge	<	.	.	.	.
.	.	.	8g#/) 8b	.	.	.	8b/J	.	.	.	.	.	.	.
8D/L	4D\	.	(>8b/	.	.	.	8b\L	nim	per	.	.	.	.	.
8B/J)	.	.	8g#/J) 8dd	.	.	[[	8dd\J	.	.	[[	.	.	.	.
=31	=31	=31	=31	=31	=31	=31	=31	=31	=31	=31	=31	=31	=31	=31
8BB/	2ryy	.	2dd/	8d\ 8fn 8a	.	>	2dd^\	ży-	stra-	.	1ryy	.	.	.
8r	.	.	.	4d\ 4f 4a	.	.	.	.	.	.	.	.	.	.
(<4BB\	.	.	.	.	.	.	.	.	.	.	.	.	.	.
.	.	.	.	8d\L 8f 8a	.	.	.	.	.	.	.	.	.	.
4C\	4ryy	.	4cc/	8f\J 8a	.	.	4cc\	-cie	-nie	.	.	.	.	.
.	.	.	.	4f\ 4a	.	]]	.	.	.	.	.	.	.	.
8D/L)	4D\	.	4b/	.	.	.	4b\	tu-	con	.	.	.	.	.
8A/J	.	.	.	8f\	.	.	.	.	.	.	.	.	.	.
*v	*v	*	*	*	*	*	*	*	*	*	*	*	*	*
!!LO:LB:g=original	!	!	!	!	!	!	!	!	!	!	!
=32	=32	=32	=32	=32	=32	=32	=32	=32	=32	=32	=32	=32	=32
8E\	.	(4a^/	8rc	.	.	4a/	-ła-	tra-	.	1ryy	.	.	.
8r	.	.	8c\ 8e	.	.	.	.	.	.	.	.	.	.
8E\	.	8g#X/)	8rc	.	.	4g#X/	-cze	-de	.	.	.	.	.
8r	.	8r	8B\ 8e	.	.	.	.	.	.	.	.	.	.
!	!	!	!	!	!	!	!	!	!LO:DY:a	!	!	!	!
8E\	.	(8e/L	8rA	.	<	8e/L	W nę-	sen-	<	.	.	.	.
8r	.	8gn/	8B\ 8e	.	.	8gn/J	.	.	.	.	.	.	.
4E\ 4G	.	8b/	8rA	.	.	8b\L	-dzy	-za a-	.	.	.	.	.
.	.	8ee/J)	8g\	.	[[	8ee\J	.	.	[[	.	.	.	.
=33	=33	=33	=33	=33	=33	=33	=33	=33	=33	=33	=33	=33	=33
*^	*	*	*	*	*	*	*	*	*	*	*	*	*
2G^/ 2B	4G\	.	(2ee/	8g\	.	.	2ee^\	bó-	-sil	.	1ryy	.	.	.
.	.	.	.	4g\ 4b	.	.	.	.	.	.	.	.	.	.
.	(4C#X\	.	.	.	.	.	.	.	.	.	.	.	.	.
.	.	.	.	4g\ 4b	.	.	.	.	.	.	.	.	.	.
2B/	4D\ 4F#	.	4dd/	.	.	.	4dd\	-lu	ram-	.	.	.	.	.
.	.	.	.	8f#\ 8b	.	.	.	.	.	.	.	.	.	.
.	4E\) 4G	.	4cc#X/)	8rd	.	.	4cc#X\	i	-min-	.	.	.	.	.
.	.	.	.	8e\ 8g	.	.	.	.	.	.	.	.	.	.
*v	*v	*	*	*	*	*	*	*	*	*	*	*	*	*
=34	=34	=34	=34	=34	=34	=34	=34	=34	=34	=34	=34	=34	=34
8F#\ 8B	.	(4b/	8d\L	.	.	(4b\	łzach,	-gar,	.	1ryy	.	.	.
8r	.	.	8d\J 8f#	.	.	.	.	.	.	.	.	.	.
4F#^\	.	8a#X/)	8rc	.	.	8a#X/)	.	.	.	.	.	.	.
.	.	8ryy	8c#X\ 8f#	.	.	8r	.	.	.	.	.	.	.
!	!	!	!	!	!	!	!	!	!LO:DY:a	!	!	!	!
8G\L 8B	.	(8e/L	2ryy	.	<	4.cc#X\	Bu-	d'o-	<	.	.	.	.
(8E\	.	8g/	.	.	.	.	.	.	.	.	.	.	.
8BB\	.	8b/	.	.	.	.	.	.	.	.	.	.	.
8GG\J)	.	8ee/J)	.	.	[[	8cc#\	-dząc	-gni	[[	.	.	.	.
=35	=35	=35	=35	=35	=35	=35	=35	=35	=35	=35	=35	=35	=35
8EE/	.	(2gg/	8rf	.	>	2ee^\	w lu-	gen-	.	1ryy	.	.	.
8r	.	.	4g\ 4b	.	]]	.	.	.	.	.	.	.	.
(4CC#X/ 4C#X	.	.	.	.	.	.	.	.	.	.	.	.	.
.	.	.	8g\ 8b	.	.	.	.	.	.	.	.	.	.
4DD/ 4D	.	4ff#/	8rf	.	.	4dd\	-dziach	-te	.	.	.	.	.
.	.	.	8f#\ 8b	.	.	.	.	.	.	.	.	.	.
4EE/) 4E	.	4ee/)	8rf	.	.	4cc#X\	od-	lo	.	.	.	.	.
.	.	.	8g\ 8b	.	.	.	.	.	.	.	.	.	.
!!LO:LB:g=original	!	!	!	!	!	!	!	!	!	!	!
=36	=36	=36	=36	=36	=36	=36	=36	=36	=36	=36	=36	=36	=36
(8FF#\L 8F#	.	(4dd/	8rd	.	.	4b\	-ra-	sprez-	.	1ryy	.	.	.
8B\J	.	.	8d\ 8f#	.	.	.	.	.	.	.	.	.	.
8F#\) 8A#X	.	4cc#X/)	8rd	.	.	8a#X/	-zę	-zo i-	.	.	.	.	.
8r	.	.	8f#\	.	.	8b\	i	-spi-	.	.	.	.	.
4FF#/ 4F#	.	(4.ff#/	8rd	.	.	4cc#X\	strach	-rar?	.	.	.	.	.
.	.	.	4f#\ 4a#X	.	.	.	.	.	.	.	.	.	.
*	*	*	*	*	*	*clefG2	*	*	*	*	*	*	*
!	!	!	!	!	!	!LO:TX:a:t=Neala. (Stłumionym głosem)	!	!	!	!	!	!	!
!	!	!	!	!	!	!LO:TX:a:i:t=Neala. (con voce soffocata)	!	!	!	!	!	!	!
4EE/ 4E	.	.	.	.	.	4f#/	O!	O	.	.	.	.	.
.	.	8any/)	8c#X\ 8f#	.	.	.	.	.	.	.	.	.	.
*	*	*v	*v	*	*	*	*	*	*	*	*	*	*
=37	=37	=37	=37	=37	=37	=37	=37	=37	=37	=37	=37	=37
!	!	!LO:TX:a:t=64	!	!	!	!	!	!	!	!	!	!
16DD/LL	.	16f#/LL 16b	.	.	4.b\	nie	ces-	.	1ryy	.	.	.
16D/	.	16B/	.	.	.	.	.	.	.	.	.	.
16DD/	.	16f#/ 16b	.	.	.	.	.	.	.	.	.	.
16D/JJ	.	16B/JJ	.	.	.	.	.	.	.	.	.	.
8DD/	.	8f#/ 8b	.	.	.	.	.	.	.	.	.	.
8r	.	8r	.	.	8a/	kończ!	-sa	.	.	.	.	.
(16D\LL	.	16fn/LL 16g#X	.	.	4.g#X/	nie	ces-	.	.	.	.	.
16C#X\	.	16B/	.	.	.	.	.	.	.	.	.	.
16D\	.	16f/ 16g#	.	.	.	.	.	.	.	.	.	.
16E\JJ	.	16B/JJ	.	.	.	.	.	.	.	.	.	.
8D\)	.	8f/ 8g#	.	.	.	.	.	.	.	.	.	.
8r	.	8r	.	.	8g#/	kończ!	-sa!	.	.	.	.	.
=38	=38	=38	=38	=38	=38	=38	=38	=38	=38	=38	=38	=38
(16CC/LL	.	16fn/LL 16a	.	.	4.a/	I-	Non	.	1ryy	.	.	.
16C/	.	16c/	.	.	.	.	.	.	.	.	.	.
16CC/	.	16f/ 16a	.	.	.	.	.	.	.	.	.	.
16C/JJ	.	16c/JJ	.	.	.	.	.	.	.	.	.	.
8CC/)	.	8e-X/ 8f 8a	.	.	.	.	.	.	.	.	.	.
8r	.	8r	.	.	8gn/	-mie	sai	.	.	.	.	.
(16C^/LL	.	16e-/LL 16f#X	.	.	4.f#/	ich	tu,	.	.	.	.	.
16BB/	.	16A/	.	.	.	.	.	.	.	.	.	.
16C/	.	16e-/ 16f#	.	.	.	.	.	.	.	.	.	.
16D/JJ	.	16A/JJ	.	.	.	.	.	.	.	.	.	.
8C/)	.	8d/ 8f#	.	.	.	.	.	.	.	.	.	.
8r	.	8r	.	.	8f#/	tu	non	.	.	.	.	.
!!LO:LB:g=original	!	!	!	!	!	!	!	!	!	!
=39	=39	=39	=39	=39	=39	=39	=39	=39	=39	=39	=39	=39
*	*	*^	*	*	*	*	*	*	*	*	*	*
(16BBB-X/LL	.	16e/LL 16g	2ryy	.	.	1ryy	.	.	.	4.g/	wy-	sai	.
16BB-X/	.	16B-X/	.	.	.	.	.	.	.	.	.	.	.
16BBB-/	.	16e/ 16g	.	.	.	.	.	.	.	.	.	.	.
16BB-/JJ	.	16B-/JJ	.	.	.	.	.	.	.	.	.	.	.
8BBB-/)	.	8d-X/ 8g	.	.	.	.	.	.	.	.	.	.	.
8r	.	8r	.	.	.	.	.	.	.	8fn/	-mó-	che il	.
(16BB-^/LL	.	16d-/LL 16fn	4ryy	.	.	.	.	.	.	4f/	-wio-	so-	.
16AA/	.	16G/	.	.	.	.	.	.	.	.	.	.	.
16BB-/	.	16d-/ 16f	.	.	.	.	.	.	.	.	.	.	.
16C/JJ	.	16G/JJ	.	.	.	.	.	.	.	.	.	.	.
8BB-/)	.	8en/	(8c\L	.	.	.	.	.	.	8e/	-ne	-lo	.
8r	.	8r	8dn\J)	.	.	.	.	.	.	8r	.	.	.
=40	=40	=40	=40	=40	=40	=40	=40	=40	=40	=40	=40	=40	=40
*^	*	*	*	*	*	*	*	*	*	*	*	*	*
(16AA^/LL	2ryy	.	(8g/	2c\	.	.	1ryy	.	.	.	(8g/	na-	prof-	.
16GG#X/	.	.	.	.	.	.	.	.	.	.	.	.	.	.
16AA/	.	.	4fn/	.	.	.	.	.	.	.	4fn/)	.	.	.
16BB-X/JJ	.	.	.	.	.	.	.	.	.	.	.	.	.	.
8AA/)	.	.	.	.	.	.	.	.	.	.	.	.	.	.
8r	.	.	8e/)	.	.	.	.	.	.	.	8e/	-zbyt	-fe-	.
(8qqAA/	.	.	.	.	.	.	.	.	.	.	.	.	.	.
16F#X^>/LL	4ryy	.	4e/	8c\	.	.	.	.	.	.	4e/	gło-	-rir-	.
16E#X/	.	.	.	.	.	.	.	.	.	.	.	.	.	.
16F#/	.	.	.	4Bn\	.	.	.	.	.	.	.	.	.	.
16G/JJ	.	.	.	.	.	.	.	.	.	.	.	.	.	.
8F#/)	8rGG	.	4d#X/	.	.	.	.	.	.	.	8d#X/	-śno	-ne	.
8rA	8AA\	.	.	8c\	.	.	.	.	.	.	16r	.	.	.
.	.	.	.	.	.	.	.	.	.	.	16d#/	ska-	il	.
*v	*v	*	*	*	*	*	*	*	*	*	*	*	*	*
=41	=41	=41	=41	=41	=41	=41	=41	=41	=41	=41	=41	=41	=41
(4GG/	.	8e/	1B	.	.	1ryy	.	.	.	[>2e/	-la-	no-	.
.	.	4e/	.	.	<	.	.	.	.	.	.	.	.
4BB/	.	.	.	.	.	.	.	.	.	.	.	.	.
.	.	4e/	.	.	.	.	.	.	.	.	.	.	.
!	!	!	!	!	!	!	!	!	!	!	!	!	!LO:DY:a
4E\	.	.	.	.	.	.	.	.	.	8e/]	.	-me,	<
.	.	4e/	.	.	.	.	.	.	.	8g/	-ło-	il	.
4G\)	.	.	.	.	.	.	.	.	.	8b\	-by	tem-	.
.	.	8e/	.	.	[[	.	.	.	.	8ee\	po	-pio-	[[
!!LO:PB:g=original	!	!	!	!	!	!	!	!	!	!	!
=42	=42	=42	=42	=42	=42	=42	=42	=42	=42	=42	=42	=42	=42
(4A\	.	8en/ 8f#	4.c\	.	>	1ryy	.	.	.	2.ee^\	wie-	-di	.
.	.	4e/ 4f#	.	.	.	.	.	.	.	.	.	.	.
8E\L	.	.	.	.	.	.	.	.	.	.	.	.	.
8C\J)	.	8f#X/	4c\ 4e	.	.	.	.	.	.	.	.	.	.
8AA/	.	8g/L	.	.	.	.	.	.	.	.	.	.	.
8r	.	8g#X/	4c\ 4e	.	.	.	.	.	.	.	.	.	.
4FF#/	.	8a/	.	.	]	.	.	.	.	4cc\	-trze	mac-	.
.	.	8a#X/J	8rc	.	.	.	.	.	.	.	.	.	.
=43	=43	=43	=43	=43	=43	=43	=43	=43	=43	=43	=43	=43	=43
8BBB/ 8BB	.	8g/ 8b	8B\ 8e	.	.	1ryy	.	.	.	4.b\	co	-chiar	.
8r	.	4e/ 4g 4b	8ryy	.	.	.	.	.	.	.	.	.	.
8BB/	.	.	4ryy	.	.	.	.	.	.	.	.	.	.
8r	.	4B/ 4e 4g	.	.	.	.	.	.	.	8b\	o-	a-	.
8BB/	.	.	2ryy	.	.	.	.	.	.	4.b\	-ta-	-vria	.
8r	.	4B/ 4d#X 4f#	.	.	.	.	.	.	.	.	.	.	.
8BB/	.	.	.	.	.	.	.	.	.	.	.	.	.
8r	.	[8B/ 8d# 8a	.	.	.	.	.	.	.	8f#/	-cza	vir-	.
*	*	*v	*v	*	*	*	*	*	*	*	*	*	*
=44	=44	=44	=44	=44	=44	=44	=44	=44	=44	=44	=44	=44
*^	*	*	*	*	*	*	*	*	*	*	*	*
8r	[2EE\	.	8B/] 8e 8g	.	.	1ryy	.	.	.	4g/	nas.	-tu.	.
(8BB/L	.	.	4G/ 4e 4g	.	.	.	.	.	.	.	.	.	.
8C/	.	.	.	.	.	.	.	.	.	4r	.	.	.
8C#X/J	.	.	4G/ 4e 4g	.	.	.	.	.	.	.	.	.	.
8C##X/L	8EE\]	.	.	.	.	.	.	.	.	4r	.	.	.
8D#X/	8rEE	.	4G/ 4e 4g	.	.	.	.	.	.	.	.	.	.
*	*	*	*	*	*	*	*	*	*	*clefG2	*	*	*
!	!	!	!	!	!	!	!	!	!	!LO:TX:a:t=Idamor.	!	!	!
!	!	!	!	!	!	!	!	!	!	!LO:TX:a:i:t=Idamor.	!	!	!
8E/	4rEE	.	.	.	.	.	.	.	.	8g/	Je-	U-	.
8F#/J)	.	.	[8e/ [8g	.	.	.	.	.	.	8g/	-den	-no	.
*v	*v	*	*	*	*	*	*	*	*	*	*	*	*
=45	=45	=45	=45	=45	=45	=45	=45	=45	=45	=45	=45	=45
(8G\L	.	8e/] 8g]	.	.	1ryy	.	.	.	4g/	z nich	d'es-	.
8D#X\	.	4e/ 4g	.	.	.	.	.	.	.	.	.	.
8E\	.	.	.	.	.	.	.	.	8g/	śmiał	-si,	.
!	!	!	!	!LO:HP:b=2	!	!	!	!	!	!	!	!
8F#\J	.	4e/ 4g	.	<	.	.	.	.	8g/	od-	sfi-	.
8G\L	.	.	.	.	.	.	.	.	4g/	-trą-	-dan-	.
8A\	.	4e/ 4g	.	.	.	.	.	.	.	.	.	.
8.c^\	.	.	.	.	.	.	.	.	8g/	-cić	-do il	.
.	.	8e/ 8g	.	[	.	.	.	.	8a/	swą	suo	.
16B\Jk)	.	.	.	.	.	.	.	.	.	.	.	.
!!LO:LB:g=original	!	!	!	!	!	!	!	!	!	!
=46	=46	=46	=46	=46	=46	=46	=46	=46	=46	=46	=46	=46
*^	*	*	*	*	*	*	*	*	*	*	*	*
(8B/L	[1D	.	8g/	.	.	4cc\	do-	fa-	.	1ryy	.	.	.
8f#>\	.	.	4g/	.	>	.	.	.	.	.	.	.	.
8e>\	.	.	.	.	.	4b\	-lę	-to,	.	.	.	.	.
8d>\J)	.	.	4f#/ 4g	.	]	.	.	.	.	.	.	.	.
(8c/L	.	.	.	.	.	4r	.	.	.	.	.	.	.
8B/	.	.	4f#/ 4g	.	.	.	.	.	.	.	.	.	.
8A/	.	.	.	.	.	8b\	U-	al-	.	.	.	.	.
8A-X/J)	.	.	[8f#/ [8dd	.	.	8b\	-czuł	-tra	.	.	.	.	.
=47	=47	=47	=47	=47	=47	=47	=47	=47	=47	=47	=47	=47	=47
(8G/L	1D]	.	8f#/] 8dd]	.	.	4.dd\	w ży-	sor-	.	1ryy	.	.	.
8G#X/	.	.	4d/ 4fn	.	.	.	.	.	.	.	.	.	.
8A/	.	.	.	.	.	.	.	.	.	.	.	.	.
8E/J	.	.	4c/ 4a	.	.	8dd\	-łach	-te am-	.	.	.	.	.
8Fn/L	.	.	.	.	.	4b\	ludz-	-bir	.	.	.	.	.
8F#X/	.	.	4B/ 4d	.	.	.	.	.	.	.	.	.	.
8.G#/	.	.	.	.	.	4g/	-ką	o-	.	.	.	.	.
.	.	.	8B/ 8g	.	.	.	.	.	.	.	.	.	.
16D/Jk)	.	.	.	.	.	.	.	.	.	.	.	.	.
=48	=48	=48	=48	=48	=48	=48	=48	=48	=48	=48	=48	=48	=48
>(8E/L	1C	.	8c/ 8g	.	.	8cc\	krew,	-so.	.	1ryy	.	.	.
!	!	!	!	!	!LO:HP:b=2	!	!	!	!	!	!	!	!
8G/	.	.	4c/ 4e	.	<	8r	.	.	.	.	.	.	.
8G#X/	.	.	.	.	.	8g/	Po-	Fra i	.	.	.	.	.
8A/J	.	.	4c/ 4e	.	.	8g/	-biegł	guer-	.	.	.	.	.
8A#X/L	.	.	.	.	.	4g/	gdzie	-rier	.	.	.	.	.
8B>\	.	.	4e/ 4g	.	.	.	.	.	.	.	.	.	.
8c>\	.	.	.	.	.	8e/	wo-	che	.	.	.	.	.
8d>\J)<	.	.	[8g/ [8cc	.	[	8fn/	-jo-	di	.	.	.	.	.
!!LO:LB:g=original	!	!	!	!	!	!	!	!	!	!	!
=49	=49	=49	=49	=49	=49	=49	=49	=49	=49	=49	=49	=49	=49
8.e>\L	1C	.	8g/] 8cc]	.	.	4g/	-wni-	fen-	.	1ryy	.	.	.
.	.	.	4e/ 4g	.	.	.	.	.	.	.	.	.	.
16B/K	.	.	.	.	.	.	.	.	.	.	.	.	.
8.c/	.	.	.	.	.	8a/	-cy	-don	.	.	.	.	.
.	.	.	4g/ 4ee	.	.	8b\	z za-	il	.	.	.	.	.
16G/Jk	.	.	.	.	.	.	.	.	.	.	.	.	.
8.A/L	.	.	.	.	.	8.cc\	-cię-	no-	.	.	.	.	.
.	.	.	4c/ 4e	.	.	.	.	.	.	.	.	.	.
16E/K	.	.	.	.	.	16cc\	-tym	-stro	.	.	.	.	.
8.G/	.	.	.	.	.	8b\	wro-	suol	.	.	.	.	.
.	.	.	8c/ 8e	.	.	8cc\	-giem	a-	.	.	.	.	.
16C/Jk	.	.	.	.	.	.	.	.	.	.	.	.	.
=50	=50	=50	=50	=50	=50	=50	=50	=50	=50	=50	=50	=50	=50
8BB-X\L 8Fn 8A-X	4ryy	.	16d/LL	.	.	2dd\	wal-	-ma-	.	1ryy	.	.	.
.	.	.	16c#X/	.	.	.	.	.	.	.	.	.	.
8F\J 8A-	.	.	16d/	.	.	.	.	.	.	.	.	.	.
.	.	.	16e/JJ	.	.	.	.	.	.	.	.	.	.
!	!	!	!LO:TX:b:t=cre_scen_do:dur=18s:ext=ud:problem:text with extention lines	!	!	!	!	!	!	!	!	!	!
8BB-/L	4BB-\	.	16fn/LL	.	<	.	.	.	.	.	.	.	.
.	.	.	16e/	.	.	.	.	.	.	.	.	.	.
8D/J 8A-	.	.	16f/	.	.	.	.	.	.	.	.	.	.
.	.	.	16g/JJ	.	.	.	.	.	.	.	.	.	.
8BB-/L	2ryy	.	16a-X/LL	.	.	8dd\	-czą	-to	.	.	.	.	.
.	.	.	16g/	.	.	.	.	.	.	.	.	.	.
8D/J 8F	.	.	16a-/	.	.	8r	.	.	.	.	.	.	.
.	.	.	16an/JJ	.	.	.	.	.	.	.	.	.	.
8BB-\L	.	.	16b-X/LL	.	.	4dd\	i	d'in-	.	.	.	.	.
.	.	.	16a/	.	.	.	.	.	.	.	.	.	.
8F\J 8A-	.	.	16b-/	.	.	.	.	.	.	.	.	.	.
.	.	.	16ccn/JJ	.	.	.	.	.	.	.	.	.	.
*v	*v	*	*	*	*	*	*	*	*	*	*	*	*
=51	=51	=51	=51	=51	=51	=51	=51	=51	=51	=51	=51	=51
*	*	*^	*	*	*	*	*	*	*	*	*	*
8BB-X\L	.	16dd\LL	2ryy	.	.	4.dd\	spo-	-net-	.	1ryy	.	.	.
.	.	16cc#X\	.	.	.	.	.	.	.	.	.	.	.
8Fn\J 8A-X	.	16dd\	.	.	.	.	.	.	.	.	.	.	.
.	.	16ee\JJ	.	.	.	.	.	.	.	.	.	.	.
8BB-\L	.	16ffn\LL	.	.	.	.	.	.	.	.	.	.	.
.	.	16ee\	.	.	[	.	.	.	.	.	.	.	.
8F\J 8A-	.	16ff\	.	.	.	8dd\	-strzegł	-ti	.	.	.	.	.
.	.	16gg\JJ	.	.	.	.	.	.	.	.	.	.	.
8BB-/	.	8gg#X\	8ryy	.	.	4dd\	ich	du-	.	.	.	.	.
4BB-^\ 4D 4B-X	.	4gg#/	8ff#y\L	.	f	.	.	.	.	.	.	.	.
.	.	.	8ee\	.	.	8cc#X\	nie-	-ci	.	.	.	.	.
8BB-\ 8D 8B-	.	8gg#/	8dd\J	.	.	8dd\	-do-	ai	.	.	.	.	.
*	*	*v	*v	*	*	*	*	*	*	*	*	*	*
!!LO:LB:g=original	!	!	!	!	!	!	!	!	!	!
=52	=52	=52	=52	=52	=52	=52	=52	=52	=52	=52	=52	=52
!	!	!LO:TX:a:t=65	!	!	!	!	!	!	!	!	!	!
8AA\ 8A	.	8cc#X\ 8ee 8aa	.	.	4ee\	-łę-	cen-	.	1ryy	.	.	.
8r	.	8r	.	.	.	.	.	.	.	.	.	.
4r	.	4r	.	.	8a/	-żność.	-ni,	.	.	.	.	.
.	.	.	.	.	8r	.	.	.	.	.	.	.
4DD/ 4D	.	4fn/ 4a 4dd	.	f	4dd^\	Jak	e-	.	.	.	.	.
8.D\L 8.A	.	8.f/L 8.a	.	p	8.a/	o-	-gli	.	.	.	.	.
16D\Jk 16A	.	16f/Jk 16bn	.	.	16b\	-rzeł	vo-	.	.	.	.	.
=53	=53	=53	=53	=53	=53	=53	=53	=53	=53	=53	=53	=53
8.AA\L 8.A	.	8.e/L 8.cc	.	.	4cc\	z chmur	-lo.	.	1ryy	.	.	.
16AA\Jk 16E	.	16d/Jk 16b	.	.	.	.	.	.	.	.	.	.
8AA/ 8E	.	8c/ 8a	.	.	4r	.	.	.	.	.	.	.
8r	.	8r	.	.	.	.	.	.	.	.	.	.
4FFn/ 4Fn	.	4fn\ 4a 4cc 4ffn	.	f	4ffn^\	na	Sul-	.	.	.	.	.
8.F\L 8.A	.	8.f/L 8.cc	.	p	8.cc\	nie-	-l'i-	.	.	.	.	.
16A\Jk	.	16f/Jk 16dd	.	.	16dd\	-przy-	-ni-	.	.	.	.	.
=54	=54	=54	=54	=54	=54	=54	=54	=54	=54	=54	=54	=54
8.C\L 8.G	.	8.g/L 8.ee	.	.	4ee\	-ja-	-mi-	.	1ryy	.	.	.
16C\Jk 16G	.	16fn/Jk 16dd	.	.	.	.	.	.	.	.	.	.
8C\ 8G	.	8e/ 8cc	.	.	8.ee\	-ciół	-co	.	.	.	.	.
8r	.	8r	.	.	.	.	.	.	.	.	.	.
.	.	.	.	.	16ee\	u-	piom	.	.	.	.	.
8EE/ 8E	.	8e/ 8g 8b	.	sf	4.gg^\	-de-	ban-	.	.	.	.	.
8r	.	8r	.	.	.	.	.	.	.	.	.	.
8CC/ 8C	.	8g\ 8a 8cc 8ee	.	sf	.	.	.	.	.	.	.	.
8r	.	8r	.	.	16ff#X\LL	-rzył	-do ar-	.	.	.	.	.
.	.	.	.	.	16ee\JJ	.	.	.	.	.	.	.
!!LO:PB:g=original	!	!	!	!	!	!	!	!	!	!
=55	=55	=55	=55	=55	=55	=55	=55	=55	=55	=55	=55	=55
8DD/ 8D	.	8.r	.	f	4ee\	śmia-	-di-	.	1ryy	.	.	.
8r	.	.	.	.	.	.	.	.	.	.	.	.
.	.	16d/ 16g 16b 16dd	.	.	.	.	.	.	.	.	.	.
8.r	.	8d/ 8g 8b 8dd	.	.	8dd\	-ło,	-to,	.	.	.	.	.
.	.	8r	.	.	8r	.	.	.	.	.	.	.
16DD/ 16D	.	.	.	.	.	.	.	.	.	.	.	.
8DD#X/ 8D#X	.	8.r	.	.	4cc\	Zbu-	in-	.	.	.	.	.
8r	.	.	.	.	.	.	.	.	.	.	.	.
.	.	16f#X/ 16a 16cc	.	.	.	.	.	.	.	.	.	.
8.r	.	8f#/ 8a 8cc	.	.	8cc\	-dził	-fu-	.	.	.	.	.
.	.	8r	.	.	8cc\	swych	-se al-	.	.	.	.	.
16DD#/ 16D#	.	.	.	.	.	.	.	.	.	.	.	.
=56	=56	=56	=56	=56	=56	=56	=56	=56	=56	=56	=56	=56
8EE/ 8E	.	8.r	.	.	4b\	bra-	-l'ar-	.	1ryy	.	.	.
8r	.	.	.	.	.	.	.	.	.	.	.	.
.	.	16e/ 16g 16b	.	.	.	.	.	.	.	.	.	.
8.r	.	8e/ 8g 8b	.	.	8b\	-ci	-mi	.	.	.	.	.
.	.	8r	.	.	8b\	u-	vi-	.	.	.	.	.
16EE/	.	.	.	.	.	.	.	.	.	.	.	.
8BBB/ 8BB	.	8.r	.	.	4a/	-śpio-	-gor,	.	.	.	.	.
8r	.	.	.	.	.	.	.	.	.	.	.	.
.	.	16d#X/ 16f# 16a	.	.	.	.	.	.	.	.	.	.
8.r	.	8d#/ 8f# 8a	.	.	8a/	-ną	die	.	.	.	.	.
.	.	8r	.	.	8a/	od-	vit-	.	.	.	.	.
16BBB/ 16BB	.	.	.	.	.	.	.	.	.	.	.	.
=57	=57	=57	=57	=57	=57	=57	=57	=57	=57	=57	=57	=57
8CC/L 8C	.	8.r	.	fp	4a/	-wa-	-to-	.	1ryy	.	.	.
16rC	.	.	.	.	.	.	.	.	.	.	.	.
16CC/Jk 16C	.	16A/ 16a	.	.	.	.	.	.	.	.	.	.
8CC/L 8C	.	8A/L 8a	.	.	8e/	-gę,	-ria.	.	.	.	.	.
16rC	.	16ra	.	.	8e/	Słał	Di-	.	.	.	.	.
16CC/Jk 16C	.	16A/Jk 16e	.	.	.	.	.	.	.	.	.	.
8CC/L 8C	.	8A/L 8e	.	.	8a/	tłu-	-sper-	.	.	.	.	.
16rC	.	16rf	.	.	8b\	-my	-se	.	.	.	.	.
16CC/Jk 16C	.	16A/Jk 16e	.	.	.	.	.	.	.	.	.	.
8CC/L 8C	.	8A/L 8e	.	.	8cc\	wro-	l'in-	.	.	.	.	.
16rC	.	16ra	.	.	8dd\	-ga	-va	.	.	.	.	.
16CC/Jk 16C	.	16e/Jk 16a	.	.	.	.	.	.	.	.	.	.
!!LO:LB:g=original	!	!	!	!	!	!	!	!	!	!
=58	=58	=58	=58	=58	=58	=58	=58	=58	=58	=58	=58	=58
!	!	!LO:TX:b:t=cresc._:dur=6s3e:ext=ud:problem:text with extention lines	!	!	!	!	!	!	!	!	!	!
8CC/L 8C	.	8e/L 8a#X	.	<	8ee\	w puch,	sor	.	1ryy	.	.	.
16rC	.	16r	.	.	8r	.	.	.	.	.	.	.
16CC/Jk 16C	.	16e/Jk 16a# 16ee	.	.	.	.	.	.	.	.	.	.
8CC/L 8C	.	8e\L 8a# 8ee	.	.	4ee\	wasz	vin-	.	.	.	.	.
16rC	.	16r	.	.	.	.	.	.	.	.	.	.
16CC/Jk 16C	.	16a#\Jk 16ee 16aa#X	.	.	.	.	.	.	.	.	.	.
8CC\L 8C	.	8a#\L 8ee 8aa#	.	.	4..ff#\	kraj	-to e in	.	.	.	.	.
16rC	.	16ra	.	.	.	.	.	.	.	.	.	.
16C\Jk 16c	.	16ee\Jk 16aa# 16eee	.	.	.	.	.	.	.	.	.	.
8C\L 8c	.	8ee\L 8aa# 8eee	.	.	.	.	.	.	.	.	.	.
16rC	.	16rcc	.	.	.	.	.	.	.	.	.	.
16C\Jk 16c	.	16ee\Jk 16aa# 16eee	.	[	16ff#\	o-	fiac-	.	.	.	.	.
=59	=59	=59	=59	=59	=59	=59	=59	=59	=59	=59	=59	=59
8BB\ 8B	.	8ff#\ 8bb 8ddd#X	.	ff	4dd#X\	-ca-	-chi-	.	1ryy	.	.	.
16r	.	16r	.	.	.	.	.	.	.	.	.	.
16BB/KL	.	16b\KL 16dd#X	.	.	.	.	.	.	.	.	.	.
8.BB/	.	8.b\ 8.cc#X 8.ee	.	.	4b\	-lił	-to	.	.	.	.	.
16BB/Jk	.	16b\Jk 16dd# 16ff#	.	.	.	.	.	.	.	.	.	.
8EE/ 8E	.	8a#X\ 8cc# 8gg	.	.	8r	.	.	.	.	.	.	.
8r	.	8r	.	.	8ee\	I	e	.	.	.	.	.
4r	.	4r	.	.	8dd#X\	nie-	si	.	.	.	.	.
.	.	.	.	.	8ee\	-śmier-	co-	.	.	.	.	.
=60	=60	=60	=60	=60	=60	=60	=60	=60	=60	=60	=60	=60
8.r	.	8.r	.	.	4b\	-tel-	-per-	.	1ryy	.	.	.
16BB/KL	.	16b\KL 16dd#X	.	ff	.	.	.	.	.	.	.	.
8.BB/	.	8.b\ 8.cc#X 8.ee	.	.	8b\	-ną	-se	.	.	.	.	.
.	.	.	.	.	8r	.	.	.	.	.	.	.
16BB/Jk	.	16b\Jk 16dd# 16ff#	.	.	.	.	.	.	.	.	.	.
8EE/ 8E	.	8a#X\ 8cc# 8gg	.	.	8r	.	.	.	.	.	.	.
8r	.	8r	.	.	8ee\	o-	d'e-	.	.	.	.	.
4r	.	4r	.	.	8dd#X\	-krył	-ter-	.	.	.	.	.
.	.	.	.	.	8ee\	się	-na	.	.	.	.	.
!!LO:LB:g=original	!	!	!	!	!	!	!	!	!	!
=61	=61	=61	=61	=61	=61	=61	=61	=61	=61	=61	=61	=61
8.r	.	8.r	.	.	1ff#	chwa-	glo-	.	1ryy	.	.	.
16BBB/ 16BB	.	16dd#X\ 16ff# 16bb	.	ff	.	.	.	.	.	.	.	.
4..BBB/ 4..BB	.	4..dd#\ 4..ff# 4..ddd#X	.	.	.	.	.	.	.	.	.	.
16BBB/KL 16BB	.	16dd#\KL 16ff# 16ddd#	.	.	.	.	.	.	.	.	.	.
8.BBB/ 8.BB	.	8.dd#\ 8.ff# 8.bb	.	.	.	.	.	.	.	.	.	.
16BBB/Jk 16BB	.	16b\Jk 16dd# 16ff#	.	.	.	.	.	.	.	.	.	.
=62	=62	=62	=62	=62	=62	=62	=62	=62	=62	=62	=62	=62
8BBB/L 8BB	.	8b\L 8dd#X	.	.	4b\	-łą!	-ria!	.	1ryy	.	.	.
16rC	.	16r	.	.	.	.	.	.	.	.	.	.
16BBB/Jk 16BB	.	16b\Jk 16dd# 16ff#	.	.	.	.	.	.	.	.	.	.
4.BBB^/ 4.BB	.	4.b^\ 4.dd# 4.bb	.	.	4r	.	.	.	.	.	.	.
.	.	.	.	.	2r	.	.	.	.	.	.	.
(16F#\LL	.	(16ff#\LL	.	.	.	.	.	.	.	.	.	.
16D#X\JJ	.	16dd#\JJ	.	.	.	.	.	.	.	.	.	.
8BB/L)	.	8b/L)	.	.	.	.	.	.	.	.	.	.
(16FF#/L	.	(16f#/L	.	.	.	.	.	.	.	.	.	.
16DD#X/JJ	.	16d#X/JJ	.	.	.	.	.	.	.	.	.	.
=63	=63	=63	=63	=63	=63	=63	=63	=63	=63	=63	=63	=63
2BBB;/) 2BB	.	2B;/)	.	.	4r	.	.	.	1ryy	.	.	.
.	.	.	.	.	4r;	.	.	.	.	.	.	.
!	!	!	!	!	!LO:TX:B:a:t=Più lento.	!	!	!	!	!	!	!
2r	.	2r	.	.	8.b\	Od-	Nel	.	.	.	.	.
.	.	.	.	.	16b\	-tąd	mi-	.	.	.	.	.
.	.	.	.	.	8b\	ta-	-ste-	.	.	.	.	.
.	.	.	.	.	8b\	-je-	-ro av-	.	.	.	.	.
=64	=64	=64	=64	=64	=64	=64	=64	=64	=64	=64	=64	=64
!	!	!LO:TX:b:t=Q.	!	!	!	!	!	!	!	!	!	!
(<2E\	.	(>2e/	.	pp	2ee\	-mni-	-vol-	.	1ryy	.	.	.
2Dn\	.	2dn/	.	.	8ddn\	-cy	-to,	.	.	.	.	.
.	.	.	.	.	8dd\	o-	da al-	.	.	.	.	.
.	.	.	.	.	8dd\	-kry-	-lor	.	.	.	.	.
.	.	.	.	.	8dd\	-ty	so	.	.	.	.	.
!!LO:LB:g=original	!	!	!	!	!	!	!	!	!	!
=65	=65	=65	=65	=65	=65	=65	=65	=65	=65	=65	=65	=65
2BB\	.	2B</	.	.	4.b\	cie-	ven-	.	1ryy	.	.	.
.	.	.	.	.	8b\	-niem	-te	.	.	.	.	.
2GG\	.	2G</	.	.	4g/	Te	i	.	.	.	.	.
.	.	.	.	.	8f#/	świę-	luo-	.	.	.	.	.
.	.	.	.	.	8g/	-te	-ghi	.	.	.	.	.
=66	=66	=66	=66	=66	=66	=66	=66	=66	=66	=66	=66	=66
2FFn\ 2Fn	.	2A</	.	.	4a/	miej-	sa-	.	1ryy	.	.	.
.	.	.	.	.	8a/	-sca	-cri o-	.	.	.	.	.
.	.	.	.	.	8a/	znie-	-sa	.	.	.	.	.
2EE\ 2E	.	2G#X</ 2B<	.	.	4.b\	-wa-	pro-	.	.	.	.	.
.	.	.	.	.	8b\	-żać	-fa-	.	.	.	.	.
=67	=67	=67	=67	=67	=67	=67	=67	=67	=67	=67	=67	=67
*	*	*^	*	*	*	*	*	*	*	*	*	*
!	!	!LO:TX:a:t=66	!	!	!	!LO:TX:a:B:t=Tempo I.	!	!	!	!	!	!	!
8AAA\) 8AA	.	8r	8A</) 8c<	.	p	4cc\	śmie...	-nar.	.	1ryy	.	.	.
!LO:TX:b:t=V-lli.	!	!	!	!	!	!	!	!	!	!	!	!	!
8E/L	.	8c'/L 8a	8ryy	.	.	.	.	.	.	.	.	.	.
8qG/	.	.	.	.	.	.	.	.	.	.	.	.	.
8Fn/	.	8c'/ 8a	4ryy	.	.	4r	.	.	.	.	.	.	.
8E/J	.	8c'/J 8a	.	.	.	.	.	.	.	.	.	.	.
*	*	*	*	*	*	*clefG2	*	*	*	*	*	*	*
!	!	!	!	!	!	!LO:TX:a:t=Neala.	!	!	!	!	!	!	!
!	!	!	!	!	!	!LO:TX:a:i:t=Neala.	!	!	!	!	!	!	!
4c/	.	8r	2ryy	.	.	4.cc\	Chroń	Men	.	.	.	.	.
.	.	8e'/ 8a	.	.	.	.	.	.	.	.	.	.	.
4c^>/	.	8r	.	.	.	.	.	.	.	.	.	.	.
.	.	8e'/ 8a	.	.	.	16b/LL	mię	pre-	.	.	.	.	.
.	.	.	.	.	.	16a/JJ	.	.	.	.	.	.	.
=68	=68	=68	=68	=68	=68	=68	=68	=68	=68	=68	=68	=68	=68
*^	*	*	*	*	*	*	*	*	*	*	*	*	*
2ryy	1AA^	.	8r	(2c^\	.	.	4a/	przed	-ser-	.	1ryy	.	.	.
.	.	.	8d'/L 8fn 8a	.	.	.	.	.	.	.	.	.	.	.
.	.	.	8d'/ 8f 8a	.	.	.	8g#X/	nim	-va,	.	.	.	.	.
.	.	.	8d'/J 8f 8b	.	.	.	8r	.	.	.	.	.	.	.
(<8c>\L)	.	.	8f/L 8g#X	2ryy	.	.	4g#/	nie-	se	.	.	.	.	.
8B\	.	.	8e/J 8g#	.	.	.	.	.	.	.	.	.	.	.
8G#X/	.	.	8r	.	.	.	8b\	-chaj	mai	.	.	.	.	.
!LO:TX:b:t=e V-le.	!	!	!	!	!	!	!	!	!	!	!	!	!	!
8E/J)	.	.	8d/ 8e	.	.	.	8b\	spoj	re	.	.	.	.	.
*	*	*	*v	*v	*	*	*	*	*	*	*	*	*	*
!!LO:PB:g=original	!	!	!	!	!	!	!	!	!	!	!
=69	=69	=69	=69	=69	=69	=69	=69	=69	=69	=69	=69	=69	=69
(8Fn/L	4AA\	.	8r	.	.	1ryy	.	.	.	4a/	rze-	pen-	.
8E/	.	.	(8c/L 8e	.	.	.	.	.	.	.	.	.	.
8A/	4rGG	.	8e/ 8cc	.	.	.	.	.	.	8e/	-niem	-te	.
8c/J)	.	.	8e/J) 8a	.	.	.	.	.	.	8r	.	.	.
4e^/	2rGG	.	8r	.	.	.	.	.	.	4cc\	Niech	s'a-	.
.	.	.	8a/ 8cc	.	.	.	.	.	.	.	.	.	.
4e^/	.	.	8r	.	.	.	.	.	.	8cc\	swym	-ves-	.
.	.	.	8a/ 8cc	.	.	.	.	.	.	8cc\	wy-	-se a	.
*v	*v	*	*	*	*	*	*	*	*	*	*	*	*
=70	=70	=70	=70	=70	=70	=70	=70	=70	=70	=70	=70	=70
*	*	*^	*	*	*	*	*	*	*	*	*	*
[<2FF#X\	.	8rdd	[2e^\	.	.	1ryy	.	.	.	4a/	-do-	noi	.
.	.	8a/L 8cc	.	.	.	.	.	.	.	.	.	.	.
.	.	8cc/ 8ee	.	.	.	.	.	.	.	8a/	-kiem	qui-	.
.	.	8e/J 8a	.	.	.	.	.	.	.	8a/	nie	-vi	.
8FF#\]	.	8a/L 8cc	(<8e\L]	.	.	.	.	.	.	4.ff#^\	ska-	a	.
8r	.	8a'/J 8cc	8d#X</	.	.	.	.	.	.	.	.	.	.
4r	.	8r	8c</	.	.	.	.	.	.	.	.	.	.
.	.	8e'/ 8a 8cc	8A</J)	.	.	.	.	.	.	8ee\	-zi	mo-	.
=71	=71	=71	=71	=71	=71	=71	=71	=71	=71	=71	=71	=71	=71
*^	*	*	*	*	*	*	*	*	*	*	*	*	*
(8G/L	4BB\	.	8r	2ryy	.	.	1ryy	.	.	.	4dd#X\	mnie!	-strar!	.
8F#/	.	.	(8d#X/L 8b	.	.	.	.	.	.	.	.	.	.	.
8A/	8BB\	.	8f#/ 8dd#X	.	.	.	.	.	.	.	4r	.	.	.
8d#X/J)	8rAA	.	8a/J) 8ff#	.	.	.	.	.	.	.	.	.	.	.
4f#^/	8r	.	8r	4ryy	.	.	.	.	.	.	4r	.	.	.
.	8B\	.	8a/	.	.	.	.	.	.	.	.	.	.	.
4ryy	4r	.	8rdd	4f#^\	.	.	.	.	.	.	8dd#\	Je-	Se	.
.	.	.	8B/ 8f#	.	.	.	.	.	.	.	8dd#\	-śli	t'e	.
*v	*v	*	*	*	*	*	*	*	*	*	*	*	*	*
=72	=72	=72	=72	=72	=72	=72	=72	=72	=72	=72	=72	=72	=72
1C	.	8rdd	(2f#^\	.	.	1ryy	.	.	.	4ee\	wiesz	no-	.
.	.	8a/L 8ee	.	.	.	.	.	.	.	.	.	.	.
.	.	8a/ 8ee	.	.	.	.	.	.	.	8ee\	w któ-	-to in	.
.	.	8a/J 8cc	.	.	.	.	.	.	.	8ee\	-rej	qual	.
.	.	8a/	8f#\L	.	.	.	.	.	.	4a/	błą-	par-	.
.	.	8c'/L 8a	8e\	.	.	.	.	.	.	.	.	.	.
.	.	8a'/ 8cc	8d#X\	.	.	.	.	.	.	8a/	-ka	-te	.
.	.	8a'/J	8e\J)	.	.	.	.	.	.	8a/	się	s'ag	.
*	*	*v	*v	*	*	*	*	*	*	*	*	*	*
!!LO:LB:g=original	!	!	!	!	!	!	!	!	!	!
=73	=73	=73	=73	=73	=73	=73	=73	=73	=73	=73	=73	=73
*^	*	*	*	*	*	*	*	*	*	*	*	*
(<8e>\L	8BB\	.	8rgg	.	.	1ryy	.	.	.	4b\	stro-	gi-	.
8d#X/	8ryy	.	8b/L 8ff#	.	.	.	.	.	.	.	.	.	.
8f#/	4ryy	.	8dd#X/ 8bb	.	.	.	.	.	.	8b\	-nie	-ri	.
8g/J)	.	.	8ee/J	.	.	.	.	.	.	8b\	Ten	quel	.
4a^>/	2ryy	.	8ff#/L	.	.	.	.	.	.	4f#/	po-	mo-	.
.	.	.	8b/J 8ff#	.	.	.	.	.	.	.	.	.	.
4a^>/	.	.	8r	.	.	.	.	.	.	8f#/	-twór	-stro,	.
.	.	.	8f#/ 8b	.	.	.	.	.	.	16r	.	.	.
.	.	.	.	.	.	.	.	.	.	16f#/	ten	che	.
=74	=74	=74	=74	=74	=74	=74	=74	=74	=74	=74	=74	=74	=74
*	*	*	*^	*	*	*	*	*	*	*	*	*	*
.	.	.	.	8qqe/	.	.	.	.	.	.	.	.	.	.
2ryy	[<2C\	.	8rgg	(<2a^\	.	.	1ryy	.	.	.	2.ff#\	nie-	non	.
.	.	.	8ee/L 8aa	.	.	.	.	.	.	.	.	.	.	.
.	.	.	8cc/ 8ee	.	.	.	.	.	.	.	.	.	.	.
.	.	.	(8cc/J	.	.	.	.	.	.	.	.	.	.	.
(<8a>\L)	8C\]	.	8ee/)	2ryy	.	.	.	.	.	.	.	.	.	.
8g/	8rAA	.	8a/L 8cc	.	.	.	.	.	.	.	.	.	.	.
8f#/	4rAA	.	8a/ 8ee	.	.	.	.	.	.	.	4ee\	-bios	ha	.
8e/J)	.	.	8a/J 8gg	.	.	.	.	.	.	.	.	.	.	.
*v	*v	*	*	*	*	*	*	*	*	*	*	*	*	*
*	*	*v	*v	*	*	*	*	*	*	*	*	*	*
=75	=75	=75	=75	=75	=75	=75	=75	=75	=75	=75	=75	=75
8C\ 8D 8A	.	8a\ 8ddn 8ff#	.	f	1ryy	.	.	.	4ddn\	wróg,	fe,	.
(16D\LL	.	(16d/LL	.	.	.	.	.	.	.	.	.	.
16E\JJ	.	16e/JJ	.	.	.	.	.	.	.	.	.	.
16F#\LL	.	16f#/LL	.	.	.	.	.	.	4r	.	.	.
16G\	.	16g/	.	.	.	.	.	.	.	.	.	.
16A\	.	16a/	.	.	.	.	.	.	.	.	.	.
16B\JJ	.	16b/JJ	.	.	.	.	.	.	.	.	.	.
8c\L	.	16cc\LL	.	.	.	.	.	.	2r	.	.	.
.	.	16ee\)	.	.	.	.	.	.	.	.	.	.
16A\L	.	(16a\	.	.	.	.	.	.	.	.	.	.
16B\JJ	.	16b\JJ	.	.	.	.	.	.	.	.	.	.
16c\)	.	16cc\LL	.	.	.	.	.	.	.	.	.	.
16r	.	16dd\	.	.	.	.	.	.	.	.	.	.
8r	.	16ee\	.	.	.	.	.	.	.	.	.	.
.	.	16ff#\JJ)	.	.	.	.	.	.	.	.	.	.
=76	=76	=76	=76	=76	=76	=76	=76	=76	=76	=76	=76	=76
8BB\ 8D 8G	.	8g\ 8gg	.	sf	1ryy	.	.	.	8r	.	.	.
8r	.	8r	.	.	.	.	.	.	8dd\	niech	dal	.
4r	.	4r	.	.	.	.	.	.	8.cc\	w je-	tuo	.
.	.	.	.	.	.	.	.	.	16b\	-go	pu-	.
8.r	.	8.r	.	.	.	.	.	.	2gg\	pierś	-gnal	.
16GG/KL 16G	.	16b\KL 16bb	.	f	.	.	.	.	.	.	.	.
8.FF#/ 8.F#	.	8.a\ 8.aa	.	.	.	.	.	.	.	.	.	.
16EE/Jk 16E	.	16g\Jk 16gg	.	.	.	.	.	.	.	.	.	.
!!LO:LB:g=original	!	!	!	!	!	!	!	!	!	!
=77	=77	=77	=77	=77	=77	=77	=77	=77	=77	=77	=77	=77
8AA/ 8E	.	8cc\	.	.	1ryy	.	.	.	8re	.	.	.
8r	.	8r	.	.	.	.	.	.	8ee\	szty-	col-	.
4r	.	4r	.	.	.	.	.	.	8.g#X/	-let	-pi-	.
.	.	.	.	.	.	.	.	.	16a/	za-	-to	.
8.r	.	8.r	.	.	.	.	.	.	4ff#\	-to-	spi-	.
16AA\KL 16A	.	16cc\KL 16ee 16ccc	.	.	.	.	.	.	.	.	.	.
8.BB\ 8.B	.	8.dd\ 8.ee 8.gg#X	.	.	.	.	.	.	8ee\	-nie!	-ri!	.
.	.	.	.	.	.	.	.	.	8r	.	.	.
16C\Jk 16c	.	16cc\Jk 16ee 16aa	.	.	.	.	.	.	.	.	.	.
=78	=78	=78	=78	=78	=78	=78	=78	=78	=78	=78	=78	=78
8D\ 8d	.	8b\ 8dd 8ggn 8bb	.	.	1ryy	.	.	.	4r	.	.	.
8r	.	8r	.	.	.	.	.	.	.	.	.	.
8.r	.	8.r	.	.	.	.	.	.	8dd^\	Za-	L'em-	.
.	.	.	.	.	.	.	.	.	8d/	-bij!	-pio!	.
16DD/ 16D	.	16dd\ 16ddd	.	ff	.	.	.	.	.	.	.	.
!	!	!	!	!	!	!	!	!	!LO:TX:a:t=Idamor. padając na kolana	!	!	!
!	!	!	!	!	!	!	!	!	!LO:TX:a:i:t=Idamor. cadendo in ginocchio	!	!	!
8DD/ 8D	.	8dd\ 8ddd	.	.	.	.	.	.	4r	.	.	.
8r	.	8r	.	.	.	.	.	.	.	.	.	.
*	*	*	*	*	*	*	*	*	*clefG2	*	*	*
4r	.	4r	.	.	.	.	.	.	4dd\	Ten	Il	.
=79	=79	=79	=79	=79	=79	=79	=79	=79	=79	=79	=79	=79
*^	*	*	*	*	*	*	*	*	*	*	*	*
!LO:TX:a:t=Cl.	!	!	!	!	!	!	!	!	!	!	!	!	!
!LO:TX:b:t=Fag.	!	!	!LO:TX:a:t=67	!	!	!	!	!	!	!	!	!	!
2B-X/	2D\ 2Fn	.	1r	.	p	1ryy	.	.	.	4dd\	nę-	mi-	.
.	.	.	.	.	.	.	.	.	.	8dd\	-dznik	-ra-	.
.	.	.	.	.	.	.	.	.	.	8dd\	u	-qui a'-	.
(4.B-/	2C\ 2E-X 2F#X	.	.	.	.	.	.	.	.	4.ee-X\	two-	-pie-	.
8A/)	.	.	.	.	.	.	.	.	.	8f#/	-ich	-di	.
*v	*v	*	*	*	*	*	*	*	*	*	*	*	*
=80	=80	=80	=80	=80	=80	=80	=80	=80	=80	=80	=80	=80
!	!	!LO:TX:a:B:t=Vivace.	!	!	!	!	!	!	!	!	!	!
8.r	.	8.r	.	.	1ryy	.	.	.	4g/	nóg.	tuoi.	.
16BB-X\ 16D 16G	.	16gg\	.	ff	.	.	.	.	.	.	.	.
[4BB-\ [4D [4G	.	4dd^\ [4ddd	.	.	.	.	.	.	8r	.	.	.
*	*	*	*	*	*	*	*	*	*clefG2	*	*	*
!	!	!	!	!	!	!	!	!	!LO:TX:a:t=Neala.	!	!	!
!	!	!	!	!	!	!	!	!	!LO:TX:a:i:t=Neala.	!	!	!
.	.	.	.	.	.	.	.	.	8dd\	O	Or-	.
8BB-\] 8D] 8G]	.	16ddd\LL]	.	.	.	.	.	.	(2gg\	bo-	-no-	.
.	.	16ccc\	.	.	.	.	.	.	.	.	.	.
8r	.	16bb-X\	.	.	.	.	.	.	.	.	.	.
.	.	16aa\JJ	.	.	.	.	.	.	.	.	.	.
4r	.	16gg\LL	.	.	.	.	.	.	.	.	.	.
.	.	16ffn\	.	.	.	.	.	.	.	.	.	.
.	.	16ee-X\	.	.	.	.	.	.	.	.	.	.
.	.	16dd\JJ	.	.	.	.	.	.	.	.	.	.
!!LO:LB:g=original	!	!	!	!	!	!	!	!	!	!
=81	=81	=81	=81	=81	=81	=81	=81	=81	=81	=81	=81	=81
1r	.	16cc#X\LL	.	.	1ryy	.	.	.	4ee\)	.	.	.
.	.	16dd\	.	.	.	.	.	.	.	.	.	.
.	.	16ee-X\	.	.	.	.	.	.	.	.	.	.
.	.	16dd\JJ	.	.	.	.	.	.	.	.	.	.
.	.	16ccn/LL	.	.	.	.	.	.	4g/	-gi!	-re!	.
.	.	16b-X/	.	.	.	.	.	.	.	.	.	.
.	.	16a/	.	.	.	.	.	.	.	.	.	.
.	.	16g/JJ	.	.	.	.	.	.	.	.	.	.
.	.	16f#X/LL	.	.	.	.	.	.	2r	.	.	.
.	.	16g/	.	.	.	.	.	.	.	.	.	.
.	.	16b-/	.	.	.	.	.	.	.	.	.	.
.	.	16a/JJ	.	.	.	.	.	.	.	.	.	.
.	.	16g/LL	.	.	.	.	.	.	.	.	.	.
.	.	16fn/	.	.	.	.	.	.	.	.	.	.
.	.	16e-X/	.	.	.	.	.	.	.	.	.	.
.	.	16d/JJ	.	.	.	.	.	.	.	.	.	.
*	*	*	*	*	*	*	*	*	*clefG2	*	*	*
=82	=82	=82	=82	=82	=82	=82	=82	=82	=82	=82	=82	=82
*	*	*	*	*	*	*	*	*	*^	*	*	*
!	!	!	!	!	!	!	!	!	!LO:TX:a:t=Idamor.	!	!	!	!
!	!	!	!	!	!	!	!	!	!LO:TX:a:i:t=Idamor.	!	!	!	!
4..CC#X/ 4..C#X	.	8c#X/	.	ff	1ryy	.	.	.	8ee/	4ryy	U-	Sve-	.
.	.	16r	.	.	.	.	.	.	8g/	.	-derz	-na-	.
.	.	16g\ 16b-X 16ee	.	.	.	.	.	.	.	.	.	.	.
.	.	8b-\ 8ee 8gg	.	.	.	.	.	.	8g\	4rcc	.	-mi!	.
.	.	8r	.	.	.	.	.	.	8r	.	.	.	.
16EE/ 16E	.	.	.	.	.	.	.	.	.	.	.	.	.
4..DD#X/ 4..D#X	.	8.r	.	.	.	.	.	.	4r	2ryy	.	.	.
.	.	16a\ 16cc 16ff#	.	.	.	.	.	.	.	.	.	.	.
.	.	8cc\ 8ff# 8aa	.	.	.	.	.	.	8r	.	.	.	.
*	*	*	*	*	*	*	*	*	*clefG2	*	*	*	*
!	!	!	!	!	!	!	!	!	!LO:TX:a:t=Neala.	!	!	!	!
!	!	!	!	!	!	!	!	!	!LO:TX:a:i:t=Neala.	!	!	!	!
.	.	8r	.	.	.	.	.	.	8a/	.	O	Fia	.
16FF#/ 16F#	.	.	.	.	.	.	.	.	.	.	.	.	.
*	*	*	*	*	*	*	*	*	*v	*v	*	*	*
=83	=83	=83	=83	=83	=83	=83	=83	=83	=83	=83	=83	=83
4..GG/ 4..G	.	8.r	.	.	1ryy	.	.	.	4ee\	nie-	ve-	.
.	.	16cc#X\ 16ee 16bb-X	.	.	.	.	.	.	.	.	.	.
.	.	8ee\ 8bb- 8ccc#X	.	.	.	.	.	.	8ee\	-ba	-ro?	.
.	.	8r	.	.	.	.	.	.	16r	.	.	.
16BB-X\ 16B-X	.	.	.	.	.	.	.	.	16ee\	to	Sei	.
4..AA\ 4..A	.	8.r	.	.	.	.	.	.	4ff#\	ty!	tu!	.
*	*	*8va	*	*	*	*	*	*	*	*	*	*
.	.	16ee-X/ 16ff# 16cccn	.	.	.	.	.	.	.	.	.	.
.	.	8ff#/ 8ccc 8eee-X	.	.	.	.	.	.	8.r	.	.	.
.	.	8r	.	.	.	.	.	.	.	.	.	.
16C\ 16c	.	.	.	.	.	.	.	.	16ff#\	to	sei	.
*	*	*X8va	*	*	*	*	*	*	*	*	*	*
!!LO:PB:g=original	!	!	!	!	!	!	!	!	!	!
=84	=84	=84	=84	=84	=84	=84	=84	=84	=84	=84	=84	=84
*	*	*8va	*	*	*	*	*	*	*	*	*	*
8C#X\ 8c#X	.	8.r	.	.	1ryy	.	.	.	2gg\	ty!	tu!!	.
16r	.	.	.	.	.	.	.	.	.	.	.	.
16C#\ 16E 16G 16B-X	.	16gg\ 16bb-X 16eeen	.	ff	.	.	.	.	.	.	.	.
4.C#\ 4.E 4.G 4.B-	.	4gg\ 4bb- [4ggg	.	.	.	.	.	.	.	.	.	.
!	!	!	!	!	!	!	!	!	!LO:TX:a:t=(ogląda się i sobą zasłania Idamora)	!	!	!
!	!	!	!	!	!	!	!	!	!LO:TX:a:i:t=(si guarda attorno sbigottita come per riparare Idamor)	!	!	!
.	.	16ggg\LL]	.	.	.	.	.	.	2r	.	.	.
.	.	16eee\	.	.	.	.	.	.	.	.	.	.
8e^\L	.	16ggg\	.	.	.	.	.	.	.	.	.	.
.	.	16eee\JJ	.	.	.	.	.	.	.	.	.	.
8c#X^\	.	16ccc#X\LL	.	.	.	.	.	.	.	.	.	.
.	.	16eee\	.	.	.	.	.	.	.	.	.	.
8B-^\J	.	16ccc#\	.	.	.	.	.	.	.	.	.	.
.	.	16eee\JJ	.	.	.	.	.	.	.	.	.	.
*	*	*X8va	*	*	*	*	*	*	*	*	*	*
=85	=85	=85	=85	=85	=85	=85	=85	=85	=85	=85	=85	=85
8G^\L	.	16ccc#X\LL	.	.	1ryy	.	.	.	2r	.	.	.
.	.	16ee\	.	.	.	.	.	.	.	.	.	.
8E^\	.	16ccc#\	.	.	.	.	.	.	.	.	.	.
.	.	16ee\JJ	.	.	.	.	.	.	.	.	.	.
8C#X^\	.	16cc#X\LL	.	.	.	.	.	.	.	.	.	.
.	.	16ee\	.	.	.	.	.	.	.	.	.	.
8BB-X^\J 8B-X	.	16cc#\	.	.	.	.	.	.	.	.	.	.
.	.	16ee\JJ	.	.	.	.	.	.	.	.	.	.
8GG^/L 8G	.	16cc#/LL	.	.	.	.	.	.	4r	.	.	.
.	.	16e/	.	.	.	.	.	.	.	.	.	.
8EE^/ 8E	.	16cc#/	.	.	.	.	.	.	.	.	.	.
.	.	16e/JJ	.	.	.	.	.	.	.	.	.	.
8CC#X^/ 8C#	.	16c#X/LL	.	.	.	.	.	.	8.ee\	Nie-	Scia-	.
.	.	16e/	.	.	.	.	.	.	.	.	.	.
8BBB-X^/J 8BB-	.	16c#/	.	.	.	.	.	.	.	.	.	.
.	.	16e/JJ	.	.	.	.	.	.	16ee\	-szczę-	-gu-	.
=86	=86	=86	=86	=86	=86	=86	=86	=86	=86	=86	=86	=86
2.GGG;/ 2.GG	.	2.G;/ 2.B-X 2.c#X 2.e	.	???	1ryy	.	.	.	2ee;\	-śli-	-ra-	.
.	.	.	.	.	.	.	.	.	4g/	-wy	-to!	.
4r	.	4r	.	.	.	.	.	.	8r	.	.	.
.	.	.	.	.	.	.	.	.	8g/	tu	t'at-	.
=87	=87	=87	=87	=87	=87	=87	=87	=87	=87	=87	=87	=87
!	!	!	!	!	!	!	!	!	!LO:TX:a:i:t=lento	!	!	!
1r	.	1r	.	.	1ryy	.	.	.	2b-X^\	śmierć	-ten-	.
.	.	.	.	.	.	.	.	.	4.g/	cze-	-de il	.
.	.	.	.	.	.	.	.	.	8g/	-ka	mar	.
!!LO:LB:g=original	!	!	!	!	!	!	!	!	!	!
=88	=88	=88	=88	=88	=88	=88	=88	=88	=88	=88	=88	=88
!	!	!	!	!	!	!	!	!	!LO:TX:a:i:t=a tempo	!	!	!
8CC/ 8FF# 8C	.	8A/ 8e-X 8f#	.	ff	1ryy	.	.	.	4f#X/	cię!	tir	.
!	!	!LO:TX:i:a:t=impetuoso	!	!	!	!	!	!	!	!	!	!
8r	.	16A/LL	.	.	.	.	.	.	.	.	.	.
.	.	16B-X/JJ	.	.	.	.	.	.	.	.	.	.
!	!	!	!	!	!	!	!	!	!LO:TX:a:t=(nagle odbiegając od niego)	!	!	!
!	!	!	!	!	!	!	!	!	!LO:TX:a:i:t=(allontanandosi improv visamente da lui)	!	!	!
4r	.	16c/LL	.	.	.	.	.	.	4r	.	.	.
.	.	16B-/	.	.	.	.	.	.	.	.	.	.
.	.	16A/	.	.	.	.	.	.	.	.	.	.
.	.	16c/JJ	.	.	.	.	.	.	.	.	.	.
2r	.	16e-/LL	.	.	.	.	.	.	2r	.	.	.
.	.	16d/	.	.	.	.	.	.	.	.	.	.
.	.	16f#/	.	.	.	.	.	.	.	.	.	.
.	.	16a/JJ	.	.	.	.	.	.	.	.	.	.
.	.	16cc/LL	.	.	.	.	.	.	.	.	.	.
.	.	16b-X/	.	.	.	.	.	.	.	.	.	.
.	.	16a/	.	.	.	.	.	.	.	.	.	.
.	.	16cc/JJ	.	.	.	.	.	.	.	.	.	.
=89	=89	=89	=89	=89	=89	=89	=89	=89	=89	=89	=89	=89
1r	.	16aa\LL	.	.	1ryy	.	.	.	4r	.	.	.
.	.	16gg\	.	.	.	.	.	.	.	.	.	.
.	.	16ff#\	.	.	.	.	.	.	.	.	.	.
.	.	16aa\JJ	.	.	.	.	.	.	.	.	.	.
.	.	8ccc\	.	.	.	.	.	.	8r	.	.	.
.	.	8r	.	.	.	.	.	.	8ee-X\	Co	Che	.
.	.	2r	.	.	.	.	.	.	8dd\	czy	fa-	.
.	.	.	.	.	.	.	.	.	8cc\	nić?	-re?	.
!	!	!	!	!	!	!	!	!	!LO:TX:a:t=(gwałtownie)	!	!	!
!	!	!	!	!	!	!	!	!	!LO:TX:a:i:t=(con violenza)	!	!	!
.	.	.	.	.	.	.	.	.	4r	.	.	.
=90	=90	=90	=90	=90	=90	=90	=90	=90	=90	=90	=90	=90
!	!	!LO:TX:i:b:t=ad lib.	!	!	!	!	!	!	!	!	!	!
1r;	.	1r;	.	.	1ryy	.	.	.	4gg;\	Od-	Va!	.
.	.	.	.	.	.	.	.	.	4ff#\	-dal	fug-	.
.	.	.	.	.	.	.	.	.	8a/	się.	-gi.	.
*	*	*	*	*	*	*	*	*	*clefG2	*	*	*
!	!	!	!	!	!	!	!	!	!LO:TX:a:t=Idamor.	!	!	!
!	!	!	!	!	!	!	!	!	!LO:TX:a:i:t=Idamor.	!	!	!
.	.	.	.	.	.	.	.	.	8cc\	Ne-	Ne-	.
.	.	.	.	.	.	.	.	.	[4ee-X\	-a-	-a-	.
=91	=91	=91	=91	=91	=91	=91	=91	=91	=91	=91	=91	=91
1r;	.	1r;	.	.	1ryy	.	.	.	4ee-\]	.	.	.
.	.	.	.	.	.	.	.	.	8f#X/	-lo!	-la!	.
.	.	.	.	.	.	.	.	.	8r	.	.	.
*	*	*	*	*	*	*	*	*	*clefG2	*	*	*
!	!	!	!	!	!	!	!	!	!LO:TX:a:i:t=lento	!	!	!
!	!	!	!	!	!	!	!	!	!LO:TX:a:t=Neala.	!	!	!
!	!	!	!	!	!	!	!	!	!LO:TX:a:i:t=Neala.	!	!	!
.	.	.	.	.	.	.	.	.	4.b-X;\	Od-	Dei	.
.	.	.	.	.	.	.	.	.	8a/	-dal	fug-	.
!!LO:LB:g=original	!	!	!	!	!	!	!	!	!	!
=92	=92	=92	=92	=92	=92	=92	=92	=92	=92	=92	=92	=92
!	!	!LO:TX:b:i:t=Q. a tempo	!	!	!	!	!	!	!	!	!	!
2FF#X/ 2F#X	.	2A/ 2d 2a	.	p	1ryy	.	.	.	4d/	się!	-gir.	.
.	.	.	.	.	.	.	.	.	8r	.	.	.
*	*	*	*	*	*	*	*	*	*clefG2	*	*	*
!	!	!	!	!	!	!	!	!	!LO:TX:a:t=Idamor.	!	!	!
!	!	!	!	!	!	!	!	!	!LO:TX:a:i:t=Idamor.	!	!	!
.	.	.	.	.	.	.	.	.	8dd\	Od-	Fug-	.
2FFn/ 2Fn	.	2Bn/ 2d 2a-X	.	.	.	.	.	.	8.dd\	-da-	-gir	.
.	.	.	.	.	.	.	.	.	16dd\	-lić	da	.
.	.	.	.	.	.	.	.	.	8dd\	się	te?	.
.	.	.	.	.	.	.	.	.	16r	.	.	.
.	.	.	.	.	.	.	.	.	16dd\	i	e	.
=93	=93	=93	=93	=93	=93	=93	=93	=93	=93	=93	=93	=93
*	*	*^	*	*	*	*	*	*	*	*	*	*
1EE-X 1E-X	.	2g/	(4B-X\ 4d	.	.	1ryy	.	.	.	4dd\	do-	do-	.
.	.	.	4c\	.	.	.	.	.	.	8g/	-kąd?	-ve?	.
.	.	.	.	.	.	.	.	.	.	16r	.	.	.
.	.	.	.	.	.	.	.	.	.	16a/	czyż	L'a-	.
.	.	2g-/	4B-\	.	.	.	.	.	.	8b-X\	mi-	-mor-	.
.	.	.	.	.	.	.	.	.	.	8cc\	-łość	-che in	.
.	.	.	4A\)	.	.	.	.	.	.	8dd\	co	sen	.
.	.	.	.	.	.	.	.	.	.	8ee-X\	mną	m'al-	.
*	*	*v	*v	*	*	*	*	*	*	*	*	*	*
=94	=94	=94	=94	=94	=94	=94	=94	=94	=94	=94	=94	=94
2DD/ 2D	.	2B-X/ 2fn	.	.	1ryy	.	.	.	4ffn\	mio-	-ber-	.
.	.	.	.	.	.	.	.	.	16b-X\	-ta	-ga,	.
.	.	.	.	.	.	.	.	.	16r	.	.	.
!	!	!	!	!	!	!	!	!	!LO:TX:t=ra_len_tan_do:dur=7eq2s:ext=ud:problem:text with extention lines 	!	!	!
.	.	.	.	.	.	.	.	.	8b-\	gdzie-	o-	.
!	!	!LO:TX:b:t=ral_len_tan_do:dur=3h:ext=ud:problem:text with extention lines	!	!	!	!	!	!	!	!	!	!
2DD-X/ 2D-X	.	2G/ 2B- 2e-X	.	.	.	.	.	.	8a/	-kol-	-vun-	.
.	.	.	.	.	.	.	.	.	8b-\	-wiek	-que	.
.	.	.	.	.	.	.	.	.	8.ee-X\	zwró-	mi	.
.	.	.	.	.	.	.	.	.	16ee-\	-cę	vol	.
!!LO:LB:g=original	!	!	!	!	!	!	!	!	!	!
=95	=95	=95	=95	=95	=95	=95	=95	=95	=95	=95	=95	=95
*	*	*^	*	*	*	*	*	*	*	*	*	*
2CC/ 2C	.	2A-X/ 2e-X	2ryy	.	.	4ee-X\	o-	ges-	.	1ryy	.	.	.
.	.	.	.	.	.	8cc\	-ko	-si,	.	.	.	.	.
.	.	.	.	.	.	8a-X/	Czyż	il	.	.	.	.	.
2CC#X/ 2C#X	.	2en/	(4G\	.	.	8.g/	nie	co-	.	.	.	.	.
.	.	.	.	.	.	16g/	do-	-re	.	.	.	.	.
.	.	.	4B-X\)	.	.	8f#X/	-bie-	m'ar-	.	.	.	.	.
.	.	.	.	.	.	8g/	-gnie	-de-	.	.	.	.	.
*	*	*v	*v	*	*	*	*	*	*	*	*	*	*
=96||	=96||	=96||	=96||	=96||	=96||	=96||	=96||	=96||	=96||	=96||	=96||	=96||
*M3/4	*	*M3/4	*	*	*M3/4	*	*	*	*M3/4	*	*	*
!	!	!LO:TX:a:B:t=Andntino.	!	!	!LO:TX:B:a:t=Andntino.	!	!	!	!	!	!	!
8DD'/L 8D	.	8Bn/ 8d	.	pp	4d/	mię?	-ra.	.	2.ryy	.	.	.
8D'/	.	8r	.	.	.	.	.	.	.	.	.	.
8DD'/	.	4r	.	.	4r	.	.	.	.	.	.	.
8D'/	.	.	.	.	.	.	.	.	.	.	.	.
8DD'/	.	4r	.	.	4r	.	.	.	.	.	.	.
8D'/J	.	.	.	.	.	.	.	.	.	.	.	.
=97	=97	=97	=97	=97	=97	=97	=97	=97	=97	=97	=97	=97
!LO:TX:b:i:t=il basso sempre staccato	!	!	!	!LO:DY:a	!	!	!	!	!	!	!	!
8DD/L	.	2c/ 2e-X 2f# 2a	.	p	2.r	.	.	.	2.ryy	.	.	.
8D/	.	.	.	.	.	.	.	.	.	.	.	.
8DD/	.	.	.	.	.	.	.	.	.	.	.	.
8D/	.	.	.	.	.	.	.	.	.	.	.	.
8DD/	.	4B-X/ 4c#X 4en 4g	.	.	.	.	.	.	.	.	.	.
8D/J	.	.	.	.	.	.	.	.	.	.	.	.
=98	=98	=98	=98	=98	=98	=98	=98	=98	=98	=98	=98	=98
*	*	*^	*	*	*	*	*	*	*	*	*	*
8DD/L	.	2.A/ 2.f#	4.d\	.	.	2.r	.	.	.	2.ryy	.	.	.
8D/	.	.	.	.	.	.	.	.	.	.	.	.	.
8DD/	.	.	.	.	.	.	.	.	.	.	.	.	.
8D/	.	.	(8d\L	.	.	.	.	.	.	.	.	.	.
8DD/	.	.	8c#X\	.	.	.	.	.	.	.	.	.	.
8D/J	.	.	8d\J)	.	.	.	.	.	.	.	.	.	.
=99	=99	=99	=99	=99	=99	=99	=99	=99	=99	=99	=99	=99	=99
!	!	!LO:TX:a:i:t=più	!	!	!LO:DY:a	!	!	!	!	!	!	!	!
8DD/L	.	2f#/ 2a 2ccn	(4.e-X\	.	f	2.r	.	.	.	2.ryy	.	.	.
8D/	.	.	.	.	.	.	.	.	.	.	.	.	.
8DD/	.	.	.	.	.	.	.	.	.	.	.	.	.
8D/	.	.	8d\)	.	.	.	.	.	.	.	.	.	.
8DD/	.	(4en/ 4g 4b-X	8d\L	.	.	.	.	.	.	.	.	.	.
8D/J	.	.	8c#X\J	.	.	.	.	.	.	.	.	.	.
!!LO:PB:g=original	!	!	!	!	!	!	!	!	!	!	!
=100	=100	=100	=100	=100	=100	=100	=100	=100	=100	=100	=100	=100	=100
8DD/L	.	4f#/) 4a	(8d\L	.	<	2.r	.	.	.	2.ryy	.	.	.
8D/	.	.	8A\	.	.	.	.	.	.	.	.	.	.
8DD/	.	2ryy	8d\	.	.	.	.	.	.	.	.	.	.
8D/	.	.	8f#\	.	.	.	.	.	.	.	.	.	.
8DD/	.	.	8a\	.	.	.	.	.	.	.	.	.	.
8D/J	.	.	8cc\J)	.	[[	.	.	.	.	.	.	.	.
*	*	*	*	*	*	*clefG2	*	*	*	*	*	*	*
=101	=101	=101	=101	=101	=101	=101	=101	=101	=101	=101	=101	=101	=101
!	!	!	!	!	!	!LO:TX:a:t=Neala.	!	!	!	!	!	!	!
8DD/L	.	(2a/ 2cc 2ee	(<2f#/	.	sf	2cc\	Bra-	Bra-	.	2.ryy	.	.	.
8D/	.	.	.	.	.	.	.	.	.	.	.	.	.
!	!	!	!	!	!	!LO:TX:a:i:t=Neala.	!	!	!	!	!	!	!
8DD/	.	.	.	.	.	.	.	.	.	.	.	.	.
8D/	.	.	.	.	.	.	.	.	.	.	.	.	.
8DD/	.	4b/) 4dd	8g\L)	.	.	8d/	-mo!	-ma!	.	.	.	.	.
8D/J	.	.	8d\J	.	.	16r	.	.	.	.	.	.	.
.	.	.	.	.	.	16d/	co	di	.	.	.	.	.
=102	=102	=102	=102	=102	=102	=102	=102	=102	=102	=102	=102	=102	=102
8DD/L	.	(2f#/ 2a 2cc	(2d#X^\	.	p	2e-X/	po-	noi	.	2.ryy	.	.	.
8D/	.	.	.	.	.	.	.	.	.	.	.	.	.
8DD/	.	.	.	.	.	.	.	.	.	.	.	.	.
8D/	.	.	.	.	.	.	.	.	.	.	.	.	.
8DD/	.	4g/) 4b	8e\L)	.	.	4c#X/	-cząć	pie-	.	.	.	.	.
8D/J	.	.	8B\J	.	.	.	.	.	.	.	.	.	.
=103	=103	=103	=103	=103	=103	=103	=103	=103	=103	=103	=103	=103	=103
8DD/L	.	(2f#/ 2a	2c^\	.	.	4d/	mam!?	-ta!	.	2.ryy	.	.	.
8D/	.	.	.	.	.	.	.	.	.	.	.	.	.
8DD/	.	.	.	.	.	4r	.	.	.	.	.	.	.
8D/	.	.	.	.	.	.	.	.	.	.	.	.	.
8DD/	.	8.g/L	8B-X\L 8c#X	.	.	4r	.	.	.	.	.	.	.
8D/J	.	.	8G\J	.	.	.	.	.	.	.	.	.	.
.	.	32f#/LL	.	.	.	.	.	.	.	.	.	.	.
.	.	32e/JJJ)	.	.	.	.	.	.	.	.	.	.	.
*	*	*v	*v	*	*	*	*	*	*	*	*	*	*
=104	=104	=104	=104	=104	=104	=104	=104	=104	=104	=104	=104	=104
8DD/L	.	2Bn/ 2d	.	.	4r	.	.	.	2.ryy	.	.	.
8D/	.	.	.	.	.	.	.	.	.	.	.	.
8DD/	.	.	.	.	4r	.	.	.	.	.	.	.
8D/	.	.	.	.	.	.	.	.	.	.	.	.
*	*	*	*	*	*clefG2	*	*	*	*	*	*	*
!	!	!	!	!	!LO:TX:a:i:t=molto dolce	!	!	!	!	!	!	!
!	!	!	!	!	!LO:TX:a:t=Idamor.	!	!	!LO:DY:a	!	!	!	!
!	!	!	!	!	!LO:TX:a:i:t=Idamor.	!	!	!	!	!	!	!
8DD/	.	8.d/L 8.b	.	.	8b\	Idź	Di	p	.	.	.	.
8D/J	.	.	.	.	8b\	za	pie-	.	.	.	.	.
.	.	16d/Jk 16b	.	.	.	.	.	.	.	.	.	.
=105	=105	=105	=105	=105	=105	=105	=105	=105	=105	=105	=105	=105
*	*	*^	*	*	*	*	*	*	*	*	*	*
!	!	!LO:TX:i:b:t=dolce	!	!	!	!	!	!	!	!	!	!	!
8DD/L	.	(4b/	4.c\ 4.f#	.	.	4.dd\	u-	-ta	.	2.ryy	.	.	.
8D/	.	.	.	.	.	.	.	.	.	.	.	.	.
8DD/	.	8a/L)	.	.	.	.	.	.	.	.	.	.	.
8D/	.	8e/	8G\L 8c	.	.	8a/	-czuć	deh	.	.	.	.	.
8DD/	.	8.f#/	8A\ 8c	.	.	8.a/	świę-	ce-	.	.	.	.	.
8D/J	.	.	8F#\J 8c	.	.	.	.	.	.	.	.	.	.
.	.	16e/Jk	.	.	.	16a/	-tym	-di a un	.	.	.	.	.
!!LO:LB:g=original	!	!	!	!	!	!	!	!	!	!	!
=106	=106	=106	=106	=106	=106	=106	=106	=106	=106	=106	=106	=106	=106
8DD/L	.	(4d/	4.G\ 4.B	.	.	4.b\	gło-	sen-	.	2.ryy	.	.	.
8D/	.	.	.	.	.	.	.	.	.	.	.	.	.
8DD/	.	8g/L)	.	.	.	.	.	.	.	.	.	.	.
8D/	.	8B/	4.ryy	.	.	8g/	-sem.	-so!	.	.	.	.	.
8DD/	.	8B/ 8d	.	.	.	8b\	Jam	Di	.	.	.	.	.
8D/J	.	8B/J 8d 8g	.	.	.	8ee\	czło-	voi	.	.	.	.	.
=107	=107	=107	=107	=107	=107	=107	=107	=107	=107	=107	=107	=107	=107
8DD/L	.	(4g/	4.A\ 4.d	.	.	4.dd\	-wie-	son	.	2.ryy	.	.	.
8D/	.	.	.	.	.	.	.	.	.	.	.	.	.
8DD/	.	8f#/L)	.	.	.	.	.	.	.	.	.	.	.
8D/	.	8a/	8d\L 8f#	.	.	8a/	-kiem	un	.	.	.	.	.
8DD/	.	8.dd/	8d\ 8f#	.	.	8.a/	jak	uo-	.	.	.	.	.
8D/J	.	.	8d\J 8f# 8a	.	.	.	.	.	.	.	.	.	.
.	.	16cc/Jk	.	.	.	16a/	i	-mo al-	.	.	.	.	.
*	*	*v	*v	*	*	*	*	*	*	*	*	*	*
=108	=108	=108	=108	=108	=108	=108	=108	=108	=108	=108	=108	=108
8GG/L 8D	.	8.d/L 8.g 8.b	.	.	4b\	wy.	-par.	.	2.ryy	.	.	.
8G/J	.	.	.	.	.	.	.	.	.	.	.	.
.	.	16a/Jk	.	.	.	.	.	.	.	.	.	.
8GG/L 8D	.	8.B/L 8.d 8.a	.	.	4r	.	.	.	.	.	.	.
8G/J	.	.	.	.	.	.	.	.	.	.	.	.
.	.	16g/Jk	.	.	.	.	.	.	.	.	.	.
8GG/L 8D	.	8.B/L 8.g	.	.	8.b\	Ten	Non	.	.	.	.	.
8G/J	.	.	.	.	.	.	.	.	.	.	.	.
.	.	16fn/Jk	.	.	16b\	co	ne-	.	.	.	.	.
=109	=109	=109	=109	=109	=109	=109	=109	=109	=109	=109	=109	=109
*	*	*^	*	*	*	*	*	*	*	*	*	*
8CC/ 8GG	.	(4e/	8r	.	.	4.cc\	wła-	-gar-	.	2.ryy	.	.	.
8r	.	.	8G\ 8c	.	.	.	.	.	.	.	.	.	.
8GG/	.	4b-X/)	8rA	.	.	.	.	.	.	.	.	.	.
8r	.	.	8c\ 8e	.	.	8cc\	-da	-mi il	.	.	.	.	.
8AA/	.	8.a/L	8rA	.	.	8.cc#X\	na-	sol	.	.	.	.	.
8r	.	.	8c#X\ 8e	.	.	.	.	.	.	.	.	.	.
.	.	16g/Jk	.	.	.	16cc#\	-szym	com-	.	.	.	.	.
=110	=110	=110	=110	=110	=110	=110	=110	=110	=110	=110	=110	=110	=110
8DD/ 8D	.	4f#/	8r	.	.	4.dd\	lo-	-pen-	.	2.ryy	.	.	.
8r	.	.	8A\ 8d	.	.	.	.	.	.	.	.	.	.
8D\	.	4dd/	8rA	.	.	.	.	.	.	.	.	.	.
8r	.	.	8d\ 8f#	.	.	8dd\	-sem	-so,	.	.	.	.	.
!	!	!	!	!	!	!	!	!	!LO:DY:a	!	!	!	!
8D\	.	8a/L	8rA	.	.	16cc#X\LL	Pa-	che	<	.	.	.	.
.	.	.	.	.	.	16dd\JJ	.	.	.	.	.	.	.
8r	.	8ccn/J	8d\ 8f# 8a	.	.	16ee\LL	-nem	dal	.	.	.	.	.
.	.	.	.	.	.	16ff#\JJ	.	.	[[	.	.	.	.
!!LO:LB:g=original	!	!	!	!	!	!	!	!	!	!	!
=111	=111	=111	=111	=111	=111	=111	=111	=111	=111	=111	=111	=111	=111
!	!	!	!	!	!	!	!	!	!LO:DY:a	!	!	!	!
8DD/L	.	8.d/L 8.b	4g\	.	.	4.gg\	jest	ciel	>	2.ryy	.	.	.
8D/	.	.	.	.	.	.	.	.	.	.	.	.	.
.	.	16c#X/K 16a#X	.	.	.	.	.	.	.	.	.	.	.
8DD/	.	8d/ 8b	2ryy	.	.	.	.	.	.	.	.	.	.
8D/	.	8B/ 8g#X	.	.	.	16ff#\LL	i	o-	]	.	.	.	.
.	.	.	.	.	.	16ee\JJ	.	.	.	.	.	.	.
8DD/	.	8cn/ 8an	.	.	.	8.dd\	mo-	-sai	.	.	.	.	.
8D/J	.	8A/J 8f#	.	.	.	.	.	.	.	.	.	.	.
.	.	.	.	.	.	16cc\	-ich	spe-	.	.	.	.	.
=112	=112	=112	=112	=112	=112	=112	=112	=112	=112	=112	=112	=112	=112
8GG\L	.	(8.g/L	8B\	.	.	8b'\	dni,	-rar,	.	2.ryy	.	.	.
(8G\ 8B	.	.	8ryy	.	.	([8b^\	Pa-	che	.	.	.	.	.
.	.	16f#/Jk	.	.	.	.	.	.	.	.	.	.	.
8B\J) 8d	.	8g/)	2ryy	.	.	16b\LL]	.	.	.	.	.	.	.
.	.	.	.	.	.	16cc\	.	.	.	.	.	.	.
8BB\L 8B	.	8d/L 8g	.	.	<	16cc#X\	.	.	.	.	.	.	.
.	.	.	.	.	.	16dd\JJ	.	.	.	.	.	.	.
8C\ 8A	.	8e-X/ 8a	.	.	.	8.ff#\)	.	.	.	.	.	.	.
8C#X\J 8G	.	8en/J 8a#X	.	.	[[	.	.	.	.	.	.	.	.
.	.	.	.	.	.	16ee\	-nem	dal	.	.	.	.	.
*	*	*v	*v	*	*	*	*	*	*	*	*	*	*
=113	=113	=113	=113	=113	=113	=113	=113	=113	=113	=113	=113	=113
*^	*	*	*	*	*	*	*	*	*	*	*	*
(<8d>\L	4.D\	.	8g/L 8b	.	>	(4ee\	jest	ciel	.	2.ryy	.	.	.
8c#X/	.	.	(>8a#X/ 8ee	.	.	.	.	.	.	.	.	.	.
8d/J)	.	.	8b/) 8dd	.	.	8g/)	.	.	.	.	.	.	.
(8D/L	4.ryy	.	8d/ 8fn 8g#X	.	]	8g#X/	i	o-	.	.	.	.	.
8C#X'/)	.	.	8e/ 8an	.	.	8a/	mo-	-sai	.	.	.	.	.
8Cn'/J	.	.	8e/J 8f#X 8a#X	.	.	8a#X/	-ich	spe-	.	.	.	.	.
*v	*v	*	*	*	*	*	*	*	*	*	*	*	*
=114	=114	=114	=114	=114	=114	=114	=114	=114	=114	=114	=114	=114
8BB\L	.	8d#X/L 8b	.	.	4b\	dni.	-rar.	.	2.ryy	.	.	.
(8BB\ 8B	.	((8d#/ 8f#	.	.	.	.	.	.	.	.	.	.
8E\J) 8B	.	8e/)) 8g	.	.	4r	.	.	.	.	.	.	.
4GG/ 4G	.	((8A#X/ 8c#X	.	.	.	.	.	.	.	.	.	.
.	.	8B/)) 8dn	.	.	8b\	Wa-	Co-	.	.	.	.	.
8GG/ 8D	.	8B/J 8d	.	.	8b\	-sze	-me	.	.	.	.	.
=115	=115	=115	=115	=115	=115	=115	=115	=115	=115	=115	=115	=115
*^	*	*^	*	*	*	*	*	*	*	*	*	*
!	!	!	!LO:TX:a:t=69	!	!	!	!	!	!	!	!	!	!	!
8rB	2.GG\	.	8r	4ryy	.	.	4.dd\	słoń-	voi,	.	2.ryy	.	.	.
8A^/L	.	.	8c/ 8d	.	.	.	.	.	.	.	.	.	.	.
8G/	.	.	(8.d/L	4.c\	.	.	.	.	.	.	.	.	.	.
8F#/	.	.	.	.	.	.	8a/	-ce	me il	.	.	.	.	.
.	.	.	16a/Jk)	.	.	.	.	.	.	.	.	.	.	.
(8.E/	.	.	8c/L 8a	.	.	.	8.a/	i	sol	.	.	.	.	.
.	.	.	8c/J 8d	8ryy	.	.	.	.	.	.	.	.	.	.
16D/Jk)	.	.	.	.	.	.	16a/	nam	ri	.	.	.	.	.
*	*	*	*v	*v	*	*	*	*	*	*	*	*	*	*
!!LO:LB:g=original	!	!	!	!	!	!	!	!	!	!	!
=116	=116	=116	=116	=116	=116	=116	=116	=116	=116	=116	=116	=116	=116
8D/	2.GG\	.	8r	.	.	4.b\	świe-	schia-	.	2.ryy	.	.	.
8B>^/L	.	.	8d/L	.	.	.	.	.	.	.	.	.	.
8A\ 8B>	.	.	(>8.d/	.	.	.	.	.	.	.	.	.	.
8G\ 8B>	.	.	.	.	.	8g/	-ci,	-ra,	.	.	.	.	.
.	.	.	16b/Jk)	.	.	.	.	.	.	.	.	.	.
(8.F#/	.	.	8B/L 8d 8b	.	.	8b\	Je-	lu-	.	.	.	.	.
.	.	.	8B/J 8d	.	.	8ee\	-den	-ce	.	.	.	.	.
16E/Jk)	.	.	.	.	.	.	.	.	.	.	.	.	.
=117	=117	=117	=117	=117	=117	=117	=117	=117	=117	=117	=117	=117	=117
8D/	2.GG\	.	8r	.	.	4.dd\	wszyst-	pro-	.	2.ryy	.	.	.
8c>\L	.	.	8d/L	.	.	.	.	.	.	.	.	.	.
8B>\	.	.	(>8.d/	.	.	.	.	.	.	.	.	.	.
8A\ 8d>	.	.	.	.	.	8a/	-kim	-di-	.	.	.	.	.
.	.	.	16cc/Jk)	.	.	.	.	.	.	.	.	.	.
(8.G/	.	.	8d/L 8cc	.	.	8.a/	kreś-	-ga e	.	.	.	.	.
.	.	.	8c/J 8d	.	.	.	.	.	.	.	.	.	.
16F#/Jk)	.	.	.	.	.	16a/	-ląc	ri-	.	.	.	.	.
=118	=118	=118	=118	=118	=118	=118	=118	=118	=118	=118	=118	=118	=118
8G/	2.GG\	.	8r	.	.	4b\	czas.	-stor.	.	2.ryy	.	.	.
8d>^\/L	.	.	8g/L 8b	.	.	.	.	.	.	.	.	.	.
8c>\	.	.	8d/ 8a	.	.	4r	.	.	.	.	.	.	.
8B>\	.	.	8d/ 8g	.	.	.	.	.	.	.	.	.	.
(8.A/	.	.	8d/ 8f#	.	.	8.b\	Je-	U-	.	.	.	.	.
.	.	.	8B/J 8d 8fn	.	.	.	.	.	.	.	.	.	.
16G/Jk)	.	.	.	.	.	16b\	-dna	-na	.	.	.	.	.
=119	=119	=119	=119	=119	=119	=119	=119	=119	=119	=119	=119	=119	=119
8G/	2BB-X\	.	8c/L 8e	.	.	4.cc\	zie-	ter-	.	2.ryy	.	.	.
8e>\L	.	.	8g/ 8cc	.	.	.	.	.	.	.	.	.	.
8.f#>^\	.	.	8g/ 8cc	.	.	.	.	.	.	.	.	.	.
.	.	.	8g/ 8cc	.	.	8cc\	-mia,	-na a	.	.	.	.	.
16e>\K	.	.	.	.	.	.	.	.	.	.	.	.	.
8E/ 8c#X>	8AA\L	.	8g/ 8cc#X	.	.	8.cc#X\	jak	tut-	.	.	.	.	.
8A/J	8GG\J	.	8e/J 8a 8cc#	.	.	.	.	.	.	.	.	.	.
.	.	.	.	.	.	16cc#\	swe	-ti	.	.	.	.	.
=120	=120	=120	=120	=120	=120	=120	=120	=120	=120	=120	=120	=120	=120
*	*	*	*^	*	*	*	*	*	*	*	*	*	*
2D/	(4FF#\	.	8.a/L 8.dd	8d\L	.	.	4.dd\	dzie-	ca-	.	2.ryy	.	.	.
.	.	.	.	8d\J	.	.	.	.	.	.	.	.	.	.
.	.	.	16g#X/Jk	.	.	.	.	.	.	.	.	.	.	.
.	4AA\	.	8gn/L	8r	.	.	.	.	.	.	.	.	.	.
.	.	.	8cn/ 8d 8f#	4.ryy	.	.	8dd\	-ci,	-ra	.	.	.	.	.
!	!	!	!	!	!	!	!	!	!	!LO:DY:a	!	!	!	!
4D/	4C\)	.	8A/ 8e 8a	.	.	.	16cc#X\LL	Je-	e	<	.	.	.	.
.	.	.	.	.	.	.	16dd\JJ	.	.	.	.	.	.	.
.	.	.	8d/J 8f# 8dd	.	.	.	16ee\LL	-dna	pur	.	.	.	.	.
.	.	.	.	.	.	.	16ff#\JJ	.	.	[[	.	.	.	.
*v	*v	*	*	*	*	*	*	*	*	*	*	*	*	*
*	*	*v	*v	*	*	*	*	*	*	*	*	*	*
!!LO:PB:g=original	!	!	!	!	!	!	!	!	!	!
=121	=121	=121	=121	=121	=121	=121	=121	=121	=121	=121	=121	=121
!	!	!	!	!	!	!	!	!LO:DY:a	!	!	!	!
8BB\ 8G	.	8d/L 8g 8dd	.	.	4.gg\	ma-	ma-	>	2.ryy	.	.	.
8r	.	8B/J 8g	.	.	.	.	.	.	.	.	.	.
(<4BB\ 4G	.	8d/L 8g	.	<	.	.	.	.	.	.	.	.
.	.	8d#X/ 8b	.	.	16ff#\LL	-tka	-dre ai	]	.	.	.	.
.	.	.	.	.	16ee\JJ	.	.	.	.	.	.	.
8AA\L 8E 8A	.	8c/ 8e 8b	.	.	8.dd\	ży-	no-	.	.	.	.	.
8D\J)	.	8c/J 8f# 8a	.	[[	.	.	.	.	.	.	.	.
.	.	.	.	.	16cc\	-wi	-stri	.	.	.	.	.
=122	=122	=122	=122	=122	=122	=122	=122	=122	=122	=122	=122	=122
*	*	*^	*	*	*	*	*	*	*	*	*	*
*	*	*	*^	*	*	*	*	*	*	*	*	*	*
(4GG/ 4D	.	8r	8B\	4.g\	.	.	8b'\	nas,	cor,	.	2.ryy	.	.	.
.	.	8B/L 8b	4ryy	.	.	.	([8b\	Jak-	e	.	.	.	.	.
8G\)	.	8B/ 8b	.	.	.	.	16b\LL]	.	.	.	.	.	.	.
.	.	.	.	.	.	.	16cc\	.	.	.	.	.	.	.
8r	.	8B/J 8b	(16f#\LL	8ryy	.	.	16cc#X\	.	.	.	.	.	.	.
.	.	.	16e\JJ)	.	.	.	16dd\JJ	.	.	.	.	.	.	.
4C\ 4E	.	8r	8.d\L	4ryy	.	.	8.ff#\)	.	.	.	.	.	.	.
.	.	8e/ 8a	.	.	.	.	.	.	.	.	.	.	.	.
.	.	.	16c\Jk	.	.	.	16ee\	-by	pur	.	.	.	.	.
*	*	*	*v	*v	*	*	*	*	*	*	*	*	*	*
=123	=123	=123	=123	=123	=123	=123	=123	=123	=123	=123	=123	=123	=123
4DD/ 4D	.	8B/L 8g	2ryy	.	.	(4ee\	mat-	ma-	.	2.ryy	.	.	.
.	.	8B/ 8d	.	.	.	.	.	.	.	.	.	.	.
(4D/	.	8B/ 8g	.	.	<	8g/)	.	.	.	.	.	.	.
.	.	8fn/ 8g#X	.	.	.	8g#X/	-ka	-dre ai	.	.	.	.	.
8C#X/L	.	8e/ 8a	8ryy	.	.	8a/	ży-	no-	.	.	.	.	.
8Cn/J)	.	8a#X/J	(16f#X\LL	.	.	8a#X/	-wi	-stri	.	.	.	.	.
.	.	.	16e\JJ)	.	[[	.	.	.	.	.	.	.	.
*	*	*v	*v	*	*	*	*	*	*	*	*	*	*
=124	=124	=124	=124	=124	=124	=124	=124	=124	=124	=124	=124	=124
*^	*	*	*	*	*	*	*	*	*	*	*	*
8rB	4BB\	.	(8d#X/L 8b	.	.	4b\	nas.	cor.	.	2.ryy	.	.	.
4B/	.	.	8d#/ 8f#	.	.	.	.	.	.	.	.	.	.
*	*	*	*	*	*	*clefG2	*	*	*	*	*	*	*
!	!	!	!	!	!	!LO:TX:a:t=Neala.	!	!	!	!	!	!	!
!	!	!	!	!	!	!LO:TX:a:i:t=Neala.	!	!	!	!	!	!	!
.	4E\	.	8e/ 8g	.	.	(4.ee^\	Bra	Bra	.	.	.	.	.
8B/L	.	.	8dn/ 8g#X	.	.	.	.	.	.	.	.	.	.
8E/	4FF#\	.	8c/ 8a	.	.	.	.	.	.	.	.	.	.
8E/J	.	.	8e/J) 8a#X	.	.	16dd\LL	.	.	.	.	.	.	.
.	.	.	.	.	.	16cc\JJ)	.	.	.	.	.	.	.
!!LO:LB:g=original	!	!	!	!	!	!	!	!	!	!	!
=125	=125	=125	=125	=125	=125	=125	=125	=125	=125	=125	=125	=125	=125
(8F#/	4BB\	.	(8d#X/L 8b	.	.	4r	.	.	.	8b\	mo!	ma!	.
4B^/	.	.	8d#/ 8f#	.	.	.	.	.	.	8b\	co	di	.
.	4E\	.	8e/ 8g	.	.	4r	.	.	.	4.g/	po-	me	.
4G^/	.	.	8A#X/ 8c#X	.	.	.	.	.	.	.	.	.	.
.	4GG\	.	8B'/) 8dn	.	.	8b\	Tyś	Tu	.	.	.	.	.
8D/)	.	.	8B'/J 8d	.	.	8b\	li-	che a	.	8g/	-cząć	pie-	.
=126	=126	=126	=126	=126	=126	=126	=126	=126	=126	=126	=126	=126	=126
4ryy	(16GG\LL	.	16r	.	.	4.dd\	-to-	pu-	.	4d/	mam?	-ta!	.
.	16D\	.	(16dd\LL	.	.	.	.	.	.	.	.	.	.
.	16A\	.	16ff#\	.	.	.	.	.	.	.	.	.	.
.	16c\JJ	.	16ee\JJ	.	.	.	.	.	.	.	.	.	.
4.d/)	8r	.	16dd\LL	.	.	.	.	.	.	4r	.	.	.
.	.	.	16cc\	.	.	.	.	.	.	.	.	.	.
.	8A\L 8c	.	16b\	.	.	8a/	-ści	-ro e	.	.	.	.	.
.	.	.	16a\JJ	.	.	.	.	.	.	.	.	.	.
.	8A\ 8c	.	16g/LL	.	.	8.a/	jest	dol-	.	4r	.	.	.
.	.	.	16f#/	.	.	.	.	.	.	.	.	.	.
8r	8A\J 8c	.	16e/	.	.	.	.	.	.	.	.	.	.
.	.	.	16d/JJ)	.	.	16a/	o-	-ce af-	.	.	.	.	.
=127	=127	=127	=127	=127	=127	=127	=127	=127	=127	=127	=127	=127	=127
!	!	!	!LO:TX:b:t=cre_scen_do:dur=25s:ext=ud:problem:text with extention lines	!	!	!	!	!	!	!	!	!	!
4ryy	(16GG\LL	.	16r	.	<	8b\	-bra-	-fet-	.	2.r	.	.	.
.	16D\	.	(16dd\LL	.	.	.	.	.	.	.	.	.	.
.	16B\	.	16gg\	.	.	8dd\	-zem,	-to	.	.	.	.	.
.	16d\JJ	.	16ff#\JJ	.	.	.	.	.	.	.	.	.	.
4g/)	8r	.	16ee\LL	.	.	4.gg\	pójdź!	l'al-	.	.	.	.	.
.	.	.	16dd\	.	.	.	.	.	.	.	.	.	.
.	8B\L 8d	.	16cc\	.	.	.	.	.	.	.	.	.	.
.	.	.	16b\JJ	.	.	.	.	.	.	.	.	.	.
4r	8B\ 8d	.	16a/LL	.	.	.	.	.	.	.	.	.	.
.	.	.	16g/	.	.	.	.	.	.	.	.	.	.
.	8B\J 8d	.	16f#/	.	.	8ee\	przed	-ma	.	.	.	.	.
.	.	.	16e/JJ	.	.	.	.	.	.	.	.	.	.
=128	=128	=128	=128	=128	=128	=128	=128	=128	=128	=128	=128	=128	=128
4ryy	(16GG\LL	.	16d/)	.	.	4..ff#\	wiecz-	ver-	.	2.r	.	.	.
.	16D\	.	(16a\LL	.	.	.	.	.	.	.	.	.	.
.	16A\	.	16aa\	.	.	.	.	.	.	.	.	.	.
.	16c\JJ	.	16gg\JJ	.	.	.	.	.	.	.	.	.	.
2d/)	8r	.	16ff#\LL	.	.	.	.	.	.	.	.	.	.
.	.	.	16ee\	.	.	.	.	.	.	.	.	.	.
.	8D'\L 8A	.	16dd\	.	.	.	.	.	.	.	.	.	.
.	.	.	16cc\JJ	4	.	16ee\	-ny	-gi-	.	.	.	.	.
.	8D'\ 8A	.	16b/LL	.	.	8.dd\	we-	-ne	.	.	.	.	.
.	.	.	16a/	.	.	.	.	.	.	.	.	.	.
.	8D'\J 8A	.	16g/	.	.	.	.	.	.	.	.	.	.
.	.	.	16f#/JJ	.	.	16cc\	-sprze	spin-	.	.	.	.	.
=129	=129	=129	=129	=129	=129	=129	=129	=129	=129	=129	=129	=129	=129
*	*	*	*	*below	*	*	*	*	*	*	*	*	*
4ryy	(16GG\LL	.	16g/)	3	.	8b\	nas!	-gea,	.	2.r	.	.	.
*	*	*	*	*above	*	*	*	*	*	*	*	*	*
.	16D\	.	(16dd\LL	1	.	.	.	.	.	.	.	.	.
.	16G\	.	16bb\	.	[	8r	.	.	.	.	.	.	.
.	16B\JJ	.	16aa\JJ	.	.	.	.	.	.	.	.	.	.
4d/)	8r	.	16gg\LL	.	.	4.gg\	Za-	deh	.	.	.	.	.
.	.	.	16ffn\	.	.	.	.	.	.	.	.	.	.
.	8G\L 8B	.	16ee\	.	.	.	.	.	.	.	.	.	.
.	.	.	16dd\JJ	.	.	.	.	.	.	.	.	.	.
4ryy	8G\ 8d 8fn	.	16cc\LL	.	.	.	.	.	.	.	.	.	.
.	.	.	16b\	.	.	.	.	.	.	.	.	.	.
.	8G\J 8f	.	16a\	.	.	8b\	-wsze	non	.	.	.	.	.
.	.	.	16g\JJ)	.	.	.	.	.	.	.	.	.	.
!!LO:LB:g=original	!	!	!	!	!	!	!	!	!	!	!	!
=130	=130	=130	=130	=130	=130	=130	=130	=130	=130	=130	=130	=130	=130
4ryy	(16C\LL	.	16r	.	.	8dd\	ra-	ren-	.	2.ryy	.	.	.
.	16E\	.	(16ee\LL	.	.	.	.	.	.	.	.	.	.
.	16G\	.	16eee\	.	.	8cc\	-zem	-der-	.	.	.	.	.
.	16c\JJ	.	16ddd\JJ	.	.	.	.	.	.	.	.	.	.
4e/)	8r	.	16ccc\LL	.	.	4.aa\	ra-	-mi	.	.	.	.	.
.	.	.	16bb\	.	.	.	.	.	.	.	.	.	.
.	8G\L	5	16aa\	.	.	.	.	.	.	.	.	.	.
.	.	.	16gg\JJ	.	.	.	.	.	.	.	.	.	.
4rc	8AA\	.	16ff#X\LL	.	.	.	.	.	.	.	.	.	.
.	.	.	16gg\	.	.	.	.	.	.	.	.	.	.
.	8G\J 8A	.	16aa\	.	.	8cc#X\	-zem	piu ab-	.	.	.	.	.
.	.	.	16ee\JJ)	.	.	.	.	.	.	.	.	.	.
=131	=131	=131	=131	=131	=131	=131	=131	=131	=131	=131	=131	=131	=131
4ryy	(>16D\LL	.	(16ff#\LL	.	.	4ee\	z to-	-biet-	.	2.ryy	.	.	.
.	16A\	.	16aa\	.	.	.	.	.	.	.	.	.	.
.	16d\	.	16ff#\	.	.	.	.	.	.	.	.	.	.
.	16e\JJ	.	16ee\JJ)	.	.	.	.	.	.	.	.	.	.
4f#/)	8r	.	(16dd\LL	.	<	8dd\	-bą	-to!	.	.	.	.	.
.	.	.	16ee\	.	.	.	.	.	.	.	.	.	.
.	8A\ 8d	.	16cc\	.	.	8r	.	.	.	.	.	.	.
.	.	.	16b\JJ)	.	.	.	.	.	.	.	.	.	.
!	!	!	!	!	!	!	!	!	!LO:DY:a	!	!	!	!
4ryy	8D'\L	.	(16a\LL	.	.	16cc#X\LL	Al-	La	<	.	.	.	.
.	.	.	16b\	.	.	16dd\JJ	.	.	.	.	.	.	.
.	8A'\J 8d	.	16cc\	.	.	16ee\LL	-bo	mia	.	.	.	.	.
.	.	.	16a\JJ)	.	.	16ff#\JJ	.	.	[[	.	.	.	.
*v	*v	*	*	*	*	*	*	*	*	*	*	*	*
=132	=132	=132	=132	=132	=132	=132	=132	=132	=132	=132	=132	=132
!	!	!	!	!	!	!	!	!LO:DY:a	!	!	!	!
8D\L	.	16b'\LL	.	.	4.gg\	cier-	sor-	>	2.ryy	.	.	.
.	.	16cc'\	.	.	.	.	.	.	.	.	.	.
8B\J 8g	.	16dd'\	.	.	.	.	.	.	.	.	.	.
.	.	16ee'\JJ	.	.	.	.	.	.	.	.	.	.
8D\L	.	16ff#'\LL	.	.	.	.	.	.	.	.	.	.
.	.	16gg'\	.	.	.	.	.	.	.	.	.	.
8G\J 8B 8d	.	16aa'\	.	.	16ff#\LL	-piąc	-te,	]	.	.	.	.
.	.	16bb'\JJ	.	.	16ee\JJ	.	.	.	.	.	.	.
8D\L	.	16ccc'\LL	.	.	8.dd\	giń-	tan-	.	.	.	.	.
.	.	16ddd'\	.	.	.	.	.	.	.	.	.	.
8A\J 8d	.	16eee'\	.	.	.	.	.	.	.	.	.	.
.	.	16fff#'\JJ	.	.	16cc\	-my	-to	.	.	.	.	.
=133	=133	=133	=133	=133	=133	=133	=133	=133	=133	=133	=133	=133
8GG\L	.	(16ggg\LL	.	.	8b'\	wraz,	rea	.	2.ryy	.	.	.
.	.	16ddd\)	.	.	.	.	.	.	.	.	.	.
8B\J 8d 8g	.	(16ddd\	.	.	([8b^\	al-	de-	.	.	.	.	.
.	.	16bb\JJ)	.	.	.	.	.	.	.	.	.	.
8G\L	.	(16bb\LL	.	.	16b\LL]	.	.	.	.	.	.	.
.	.	16gg\)	.	.	16cc\	.	.	.	.	.	.	.
8B\J 8d 8g	.	(16gg\	.	.	16cc#X\	.	.	.	.	.	.	.
.	.	16dd\JJ)	.	.	16dd\JJ	.	.	.	.	.	.	.
8C\L	.	(16dd#X\LL	.	.	8.ff#\)	.	.	.	.	.	.	.
.	.	16ee\	.	.	.	.	.	.	.	.	.	.
8E\J 8A 8c	.	16cc\	.	.	.	.	.	.	.	.	.	.
.	.	16a\JJ)	.	.	16ee\	-bo	-sti un	.	.	.	.	.
!!LO:LB:g=original	!	!	!	!	!	!	!	!	!	!	!	!
=134	=134	=134	=134	=134	=134	=134	=134	=134	=134	=134	=134	=134
8D\L	.	(16b\LL	.	.	16ee\LL	cier-	mi-	.	2.r;	.	.	.
.	.	16dd\	.	.	16dd\JJ	.	.	.	.	.	.	.
8G\J 8B 8d	.	16gg\	.	.	16cc#X\LL	-piąc	-te	.	.	.	.	.
.	.	16bb\JJ)	.	.	16dd\JJ	.	.	.	.	.	.	.
8D\	.	8cc\L 8ee 8aa	.	.	4ee\	giń-	sen-	.	.	.	.	.
8r	.	8a\J 8cc 8ee	.	.	.	.	.	.	.	.	.	.
4D;\ 4A 4c	.	4d^;/	.	.	(4ff#;\	-my	-so in	.	.	.	.	.
=135	=135	=135	=135	=135	=135	=135	=135	=135	=135	=135	=135	=135
*tremolo	*	*	*	*	*	*	*	*	*	*	*	*
!	!	!LO:TX:a:t=70	!	!	!	!	!	!	!	!	!	!
.	.	.	.	.	8qqgg/)	.	.	.	.	.	.	.
!	!	!	!	!	!	!	!	!	!	!	!	!LO:DY:a
8E\L 8G 8A 8c#X	.	16a^\ 16gg	.	sf	4gg\	wraz.	te.	.	2gg\	Zo-	Re-	ff
.	.	16r	.	.	.	.	.	.	.	.	.	.
8E\ 8G 8A 8c#	.	16g/LL	.	.	.	.	.	.	.	.	.	.
.	.	16a/JJ	.	.	.	.	.	.	.	.	.	.
8E\ 8G 8A 8c#	.	16cc#X\LL	.	.	2r	.	.	.	.	.	.	.
.	.	16ee\	.	.	.	.	.	.	.	.	.	.
8E\ 8G 8A 8c#	.	16gg\	.	.	.	.	.	.	.	.	.	.
.	.	16bb\JJ	.	.	.	.	.	.	.	.	.	.
8E\ 8G 8A 8c#	.	16aa\LL	.	.	.	.	.	.	4cc#X\	-stań!	-sta!	.
.	.	16gg\	.	.	.	.	.	.	.	.	.	.
8E\J 8G 8A 8c#	.	16ee\	.	.	.	.	.	.	.	.	.	.
.	.	16a\JJ	.	.	.	.	.	.	.	.	.	.
=136	=136	=136	=136	=136	=136	=136	=136	=136	=136	=136	=136	=136
8D\L 8G 8B 8d	.	16r	.	.	2.r	.	.	.	4.dd\	zo-	re-	.
.	.	16g\LL	.	.	.	.	.	.	.	.	.	.
8D\ 8G 8B 8d	.	16b\	.	.	.	.	.	.	.	.	.	.
.	.	16ccn\JJ	.	.	.	.	.	.	.	.	.	.
8D\ 8G 8B 8d	.	16dd\LL	.	.	.	.	.	.	.	.	.	.
.	.	16ff#\	.	.	.	.	.	.	.	.	.	.
8D\ 8G 8B 8d	.	16gg\	.	.	.	.	.	.	8g/	-stań	-sta!	.
.	.	16bb\JJ	.	.	.	.	.	.	.	.	.	.
8D\ 8G 8B 8d	.	16ddd\LL	.	.	.	.	.	.	8b\	Twym	Ta-	.
.	.	16bb\	.	.	.	.	.	.	.	.	.	.
8D\J 8G 8B 8d	.	16gg\	.	.	.	.	.	.	8dd\	wy-	-le ac-	.
.	.	16dd\JJ	.	.	.	.	.	.	.	.	.	.
=137	=137	=137	=137	=137	=137	=137	=137	=137	=137	=137	=137	=137
8C#X\L 8E 8G 8B	.	8r	.	.	2.r	.	.	.	4.gg\	-ra-	-cen-	.
8C#\ 8E 8G 8B	.	16g/LL	.	<	.	.	.	.	.	.	.	.
.	.	16b/JJ	.	.	.	.	.	.	.	.	.	.
8C#\ 8E 8G 8B	.	16ee\LL	.	.	.	.	.	.	.	.	.	.
.	.	16gg\	.	.	.	.	.	.	.	.	.	.
8C#\ 8E 8G 8B	.	16bb\	.	.	.	.	.	.	8ff#\	-zem	-to	.
.	.	16ccc#X\JJ	.	[	.	.	.	.	.	.	.	.
8C#\ 8E 8G 8B	.	16bb\LL	.	.	.	.	.	.	8ee\	wlał-	puo-	.
.	.	16gg\	.	.	.	.	.	.	.	.	.	.
8C#\J 8E 8G 8B	.	16ee\	.	.	.	.	.	.	8dd\	-byś	-le	.
.	.	16b\JJ	.	.	.	.	.	.	.	.	.	.
!!LO:PB:g=original	!	!	!	!	!	!	!	!	!	!	!	!
=138	=138	=138	=138	=138	=138	=138	=138	=138	=138	=138	=138	=138
*^	*	*	*	*	*	*	*	*	*	*	*	*
8F#/L	4F#\	.	16r	.	.	2.ryy	.	.	.	4dd\	czu-	pie-	.
.	.	.	(16b\LL	.	>	.	.	.	.	.	.	.	.
8B/J 8d	.	.	16dd\	.	.	.	.	.	.	.	.	.	.
.	.	.	16ff#\JJ)	.	.	.	.	.	.	.	.	.	.
8F#/L	4F#\	.	16r	.	.	.	.	.	.	4cc#X\	-cie	-tre in-	.
.	.	.	(16a#X\LL	.	.	.	.	.	.	.	.	.	.
8A#X/J 8c#X	.	.	16cc\	.	.	.	.	.	.	.	.	.	.
.	.	.	16ff#\JJ)	.	]	.	.	.	.	.	.	.	.
8E/L	4E\	.	(16ff#\LL	.	.	.	.	.	.	8.cc#\	w zim-	-te-	.
.	.	.	16an\)	.	.	.	.	.	.	.	.	.	.
8F#/J 8An 8cn	.	.	(16a\	.	.	.	.	.	.	.	.	.	.
.	.	.	16ff#\JJ)	.	.	.	.	.	.	16ff#\	-ny	-ne-	.
=139	=139	=139	=139	=139	=139	=139	=139	=139	=139	=139	=139	=139	=139
8D#X/L	4D#^\	.	16r	.	.	2.ryy	.	.	.	(4ff#\	głaz!	-rir	.
.	.	.	(16an\LL	.	.	.	.	.	.	.	.	.	.
8F#/J 8B	.	.	16a\	.	.	.	.	.	.	.	.	.	.
.	.	.	16ff#\JJ)	.	.	.	.	.	.	.	.	.	.
8E/L	4E\	.	16r	.	.	.	.	.	.	8b\)	.	.	.
.	.	.	(16g#X/LL	.	.	.	.	.	.	.	.	.	.
8B/J 8e	.	.	16g#/	.	.	.	.	.	.	8r	.	.	.
.	.	.	16b/JJ)	.	.	.	.	.	.	.	.	.	.
8Dn/L	4D\	.	16r	.	.	.	.	.	.	8.b\	Twym	Ta-	.
.	.	.	(16gn\LL	.	.	.	.	.	.	.	.	.	.
8E/J 8Gn 8B	.	.	16g\	.	.	.	.	.	.	.	.	.	.
.	.	.	16ee\JJ)	.	.	.	.	.	.	16ee\	wy-	-le ac-	.
=140	=140	=140	=140	=140	=140	=140	=140	=140	=140	=140	=140	=140	=140
8C#X/L	4C#\	.	16r	.	.	2.ryy	.	.	.	4.ee\	-ra-	-cen-	.
.	.	.	(16g/LL	.	.	.	.	.	.	.	.	.	.
8E/J 8A	.	.	16a/	.	.	.	.	.	.	.	.	.	.
.	.	.	16e/JJ)	.	.	.	.	.	.	.	.	.	.
8Cn/L	4C\	.	16r	.	.	.	.	.	.	.	.	.	.
.	.	.	(16f#/LL	.	.	.	.	.	.	.	.	.	.
8D/J 8A	.	.	16a/	.	.	.	.	.	.	8dd\	-zem	-to	.
.	.	.	16dd/JJ)	.	.	.	.	.	.	.	.	.	.
4ryy	8BB\L 8D 8G	.	8d/L 8g 8dd	.	.	.	.	.	.	8g/	wlał-	puo-	.
.	8C\J 8E 8G	.	8e/J 8g 8cc	.	.	.	.	.	.	8a/	-byś	-le	.
*v	*v	*	*	*	*	*	*	*	*	*	*	*	*
=141	=141	=141	=141	=141	=141	=141	=141	=141	=141	=141	=141	=141
*Xtremolo	*	*	*	*	*	*	*	*	*	*	*	*
8D\L	.	(16b/LL	.	.	2.ryy	.	.	.	16b\LL	czu-	pie-	.
.	.	16d/	.	.	.	.	.	.	32cc\L	.	.	.
.	.	.	.	.	.	.	.	.	32b\JJJ	.	.	.
8D\J	.	16g/	.	.	.	.	.	.	16a/LL	-cie	-tre in-	.
.	.	16b/JJ)	.	.	.	.	.	.	16b/JJ	.	.	.
(>16DD/LL 16D	.	4.c/ 4.e 4.cc	.	.	.	.	.	.	4.cc\	w zim-	-te-	.
16D#X/	.	.	.	.	.	.	.	.	.	.	.	.
16E/	.	.	.	.	.	.	.	.	.	.	.	.
16F#/JJ)	.	.	.	.	.	.	.	.	.	.	.	.
8G/L	.	.	.	.	.	.	.	.	.	.	.	.
(16d#X>\L	.	8f#/	.	.	.	.	.	.	8f#/	-ny	-ne-	.
16c>\JJ)	.	.	.	.	.	.	.	.	.	.	.	.
!!LO:LB:g=original	!	!	!	!	!	!	!	!	!	!	!	!
=142	=142	=142	=142	=142	=142	=142	=142	=142	=142	=142	=142	=142
*tremolo	*	*	*	*	*	*	*	*	*	*	*	*
8GG/L 8BB	.	16B/ 16g	.	.	2.r	.	.	.	4g/	głaz.	-rir.	.
*	*	*clefF4	*	*	*	*	*	*	*	*	*	*
.	.	(16D\LL	.	.	.	.	.	.	.	.	.	.
8GG/ 8BB	.	16E\	.	.	.	.	.	.	.	.	.	.
.	.	16F#\JJ	.	.	.	.	.	.	.	.	.	.
.	.	8qA/	.	.	.	.	.	.	.	.	.	.
8GG/ 8BB	.	16G\LL	.	.	.	.	.	.	8r	.	.	.
.	.	16F#\	.	.	.	.	.	.	.	.	.	.
8GG/ 8BB	.	16G\	.	.	.	.	.	.	8d/	Więc	Piu	.
.	.	16B\JJ	.	.	.	.	.	.	.	.	.	.
8GG/ 8BB	.	8.e\L	.	.	.	.	.	.	8c#X/	dziel-	nul-	.
8GG/J 8BB	.	.	.	.	.	.	.	.	8d/	-my	-la io	.
.	.	16d\Jk)	.	.	.	.	.	.	.	.	.	.
=143	=143	=143	=143	=143	=143	=143	=143	=143	=143	=143	=143	=143
8GG/L 8BB 8D	.	(16d\LL	.	.	2.r	.	.	.	2b\	szczęs-	non	.
.	.	16F#\	.	.	.	.	.	.	.	.	.	.
8GG/ 8BB 8D	.	16G\	.	.	.	.	.	.	.	.	.	.
.	.	16A\JJ	.	.	.	.	.	.	.	.	.	.
.	.	8qc/	.	.	.	.	.	.	.	.	.	.
8GG/ 8BB 8D	.	16B\LL	.	.	.	.	.	.	.	.	.	.
.	.	16A#X\	.	.	.	.	.	.	.	.	.	.
8GG/ 8BB 8D	.	16B\	.	.	.	.	.	.	.	.	.	.
.	.	16d\JJ	.	.	.	.	.	.	.	.	.	.
8GG/ 8BB 8D	.	8.f#\L	.	.	.	.	.	.	4f#/	-cie	pa-	.
8GG/J 8BB 8D	.	.	.	.	.	.	.	.	.	.	.	.
.	.	16e\Jk	.	.	.	.	.	.	.	.	.	.
=144	=144	=144	=144	=144	=144	=144	=144	=144	=144	=144	=144	=144
8GG/L 8BB 8D 8G	.	16d\)	.	.	4r	.	.	.	4a/	ra-	-ven-	.
.	.	(16A#X\LL	.	.	.	.	.	.	.	.	.	.
8GG/ 8BB 8D 8G	.	16B\	.	.	.	.	.	.	.	.	.	.
.	.	16c#X\JJ	.	.	.	.	.	.	.	.	.	.
*	*	*clefG2	*	*	*	*	*	*	*	*	*	*
.	.	8qe/	.	.	.	.	.	.	.	.	.	.
8GG/ 8BB 8D 8G	.	16d/LL	.	.	8r	.	.	.	8g/	-zem!	-to!	.
.	.	16c#X/	.	.	.	.	.	.	.	.	.	.
8GG/ 8BB 8D 8G	.	16d/	.	.	8dd\	Lub	La	.	8r	.	.	.
.	.	16g/JJ	.	.	.	.	.	.	.	.	.	.
!	!	!LO:TX:b:t=cresc._ _molto:dur=7se:ext=ud:problem:text with extention lines	!	!	!	!	!	!	!	!	!	!
8GG/ 8BB 8D 8G	.	8.b/L	.	<	8b\	giń-	sor-	.	4r	.	.	.
8GG/J 8BB 8D 8G	.	.	.	.	8dd\	-my	-te	.	.	.	.	.
.	.	16f#/Jk	.	.	.	.	.	.	.	.	.	.
=145	=145	=145	=145	=145	=145	=145	=145	=145	=145	=145	=145	=145
8GG/L 8BB 8D 8G	.	16g/)	.	.	2gg\	cier-	mia	.	2.r	.	.	.
.	.	(16c#X/LL	.	.	.	.	.	.	.	.	.	.
8GG/ 8BB 8D 8G	.	16d/	.	.	.	.	.	.	.	.	.	.
.	.	16f#/JJ	.	.	.	.	.	.	.	.	.	.
.	.	8qa/	.	.	.	.	.	.	.	.	.	.
8GG/ 8BB 8D 8G	.	16g/LL	.	.	.	.	.	.	.	.	.	.
.	.	16f#/	.	.	.	.	.	.	.	.	.	.
8GG/ 8BB 8D 8G	.	16g/	.	[	.	.	.	.	.	.	.	.
.	.	16b/JJ	.	.	.	.	.	.	.	.	.	.
8GG/ 8BB 8D 8G	.	8.ee\L	.	.	4cc#X\	-piąc	di	.	.	.	.	.
8GG/J 8BB 8D 8G	.	.	.	.	.	.	.	.	.	.	.	.
.	.	32ff#\LL	.	.	.	.	.	.	.	.	.	.
.	.	32ee\JJJ	.	.	.	.	.	.	.	.	.	.
!!LO:LB:g=original	!	!	!	!	!	!	!	!	!	!	!	!
=146	=146	=146	=146	=146	=146	=146	=146	=146	=146	=146	=146	=146
*	*	*	*	*	*^	*	*	*	*	*	*	*
8GG/L 8BB 8D 8G	.	16dd\)	.	.	4ee\	4.ryy	ra-	vi-	.	4r	.	.	.
.	.	(16f#/LL	.	.	.	.	.	.	.	.	.	.	.
8GG/ 8BB 8D 8G	.	16g/	.	.	.	.	.	.	.	.	.	.	.
.	.	16a/JJ	.	.	.	.	.	.	.	.	.	.	.
.	.	8qcc/	.	.	.	.	.	.	.	.	.	.	.
8GG/ 8BB 8D 8G	.	16b\LL	.	.	8dd\	.	-zem,	-di!	.	8r	.	.	.
.	.	16a#X\	.	.	.	.	.	.	.	.	.	.	.
8GG/ 8BB 8D 8G	.	16b\	.	.	8b/	8dd\	lub	Vi-	.	8b\	lub	Vi-	.
.	.	16dd\JJ	.	.	.	.	.	.	.	.	.	.	.
.	.	8qee/	.	.	.	.	.	.	.	.	.	.	.
8GG/ 8BB 8D 8G	.	16dd\LL	.	.	8dd/	8b\	cier-	-ver	.	8dd\	cier-	-ver	.
.	.	16cc#X\	.	.	.	.	.	.	.	.	.	.	.
8GG/J 8BB 8D 8G	.	16dd\	.	.	8gg/	8dd\	-piąc	con	.	8gg\	-piąc	con	.
.	.	16gg\JJ)	.	.	.	.	.	.	.	.	.	.	.
=147	=147	=147	=147	=147	=147	=147	=147	=147	=147	=147	=147	=147	=147
*	*	*tremolo	*	*	*	*	*	*	*	*	*	*	*
8GG/ 8BB 8D	.	32dd\LLL 32gg 32bb	.	ff	[2.bb/	[2.gg\	ra-	te	.	[2.bb\	ra-	te	.
.	.	32b\	.	.	.	.	.	.	.	.	.	.	.
.	.	32dd\ 32gg 32bb	.	.	.	.	.	.	.	.	.	.	.
.	.	32b\	.	.	.	.	.	.	.	.	.	.	.
8D^/L 8d	.	32dd\ 32gg 32bb	.	.	.	.	.	.	.	.	.	.	.
.	.	32b\	.	.	.	.	.	.	.	.	.	.	.
.	.	32dd\ 32gg 32bb	.	.	.	.	.	.	.	.	.	.	.
.	.	32b\	.	.	.	.	.	.	.	.	.	.	.
8BB^/ 8B	.	32dd\ 32gg 32bb	.	.	.	.	.	.	.	.	.	.	.
.	.	32b\	.	.	.	.	.	.	.	.	.	.	.
.	.	32dd\ 32gg 32bb	.	.	.	.	.	.	.	.	.	.	.
.	.	32b\	.	.	.	.	.	.	.	.	.	.	.
8GG^/ 8G	.	32dd\ 32gg 32bb	.	.	.	.	.	.	.	.	.	.	.
.	.	32b\	.	.	.	.	.	.	.	.	.	.	.
.	.	32dd\ 32gg 32bb	.	.	.	.	.	.	.	.	.	.	.
.	.	32b\	.	.	.	.	.	.	.	.	.	.	.
8DD^/ 8D	.	32dd\ 32gg 32bb	.	.	.	.	.	.	.	.	.	.	.
.	.	32b\	.	.	.	.	.	.	.	.	.	.	.
.	.	32dd\ 32gg 32bb	.	.	.	.	.	.	.	.	.	.	.
.	.	32b\	.	.	.	.	.	.	.	.	.	.	.
8BBB^/J 8BB	.	32dd\ 32gg 32bb	.	.	.	.	.	.	.	.	.	.	.
.	.	32b\	.	.	.	.	.	.	.	.	.	.	.
.	.	32dd\ 32gg 32bb	.	.	.	.	.	.	.	.	.	.	.
.	.	32b\JJJ	.	.	.	.	.	.	.	.	.	.	.
=148	=148	=148	=148	=148	=148	=148	=148	=148	=148	=148	=148	=148	=148
8DD/	.	8b\ 8dd 8gg 8bb	.	.	8bb/]	8gg\]	.	.	.	8bb\]	.	.	.
8r	.	8r	.	.	8ff#\	8ryy	-zem	vogl'-	.	8ff#\	-zem	vogl'-	.
4r;	.	4r;	.	.	8.aa^;\	2ryy	ra-	-io,	.	8.aa;^\	ra-	-io,	.
.	.	.	.	.	16gg\	.	-zem	con	.	16gg\	-zem	con	.
4r	.	4r	.	.	8dd\	.	giń-	te	.	8dd\	giń-	te	.
.	.	.	.	.	8b/	.	-my	mo-	.	8b\	-my	mo-	.
*	*	*	*	*	*v	*v	*	*	*	*	*	*	*
=149	=149	=149	=149	=149	=149	=149	=149	=149	=149	=149	=149	=149
*	*	*^	*	*	*	*	*	*	*	*	*	*
!	!	!LO:TX:a:B:t=Più mosso.	!	!	!	!	!	!	!	!	!	!	!
4r	.	4r	4ryy	.	.	4g/	wraz.	-rir!	.	4g/	wraz.	-rir!	.
4C\ 4E-X 4G	.	8gg/L	4cc\ 4ee-X	.	sf	4r	.	.	.	4r	.	.	.
.	.	16ff#/L	.	.	.	.	.	.	.	.	.	.	.
.	.	16gg/JJ	.	.	.	.	.	.	.	.	.	.	.
!	!	!	!	!	!	!LO:TX:a:t=odchodzą do świątyni.	!	!	!	!	!	!	!
!	!	!	!	!	!	!LO:TX:i:a:t=Si allontanano dirigendosi\nverso il tempio.	!	!	!	!	!	!	!
4GG/ 4BB 4D 4G	.	8gg/L	4b\ 4dd	.	sf	4r	.	.	.	4r	.	.	.
.	.	16ff#/L	.	.	.	.	.	.	.	.	.	.	.
.	.	16gg/JJ	.	.	.	.	.	.	.	.	.	.	.
=150	=150	=150	=150	=150	=150	=150	=150	=150	=150	=150	=150	=150	=150
4C\ 4E-X 4G	.	8gg/L	4cc\ 4ee-X	.	sf	2.r	.	.	.	2.r	.	.	.
.	.	16ff#/L	.	.	.	.	.	.	.	.	.	.	.
.	.	16gg/JJ	.	.	.	.	.	.	.	.	.	.	.
4GG/ 4BB 4D 4G	.	8gg/L	4b\ 4dd	.	sf	.	.	.	.	.	.	.	.
.	.	16ff#/L	.	.	.	.	.	.	.	.	.	.	.
.	.	16gg/JJ	.	.	.	.	.	.	.	.	.	.	.
4C\ 4E- 4G	.	8gg/L	4cc\ 4ee-	.	sf	.	.	.	.	.	.	.	.
.	.	16ff#/L	.	.	.	.	.	.	.	.	.	.	.
.	.	16gg/JJ	.	.	.	.	.	.	.	.	.	.	.
*	*	*v	*v	*	*	*	*	*	*	*	*	*	*
!!LO:LB:g=original	!	!	!	!	!	!	!	!	!	!	!	!
=151	=151	=151	=151	=151	=151	=151	=151	=151	=151	=151	=151	=151
8GGG/L 8GG	.	32ee-X\LLL 32gg 32bb-X	.	ff	2.ryy	.	.	.	2.ryy	.	.	.
.	.	32b-X\	.	.	.	.	.	.	.	.	.	.
.	.	32ee-\ 32gg 32bb-	.	.	.	.	.	.	.	.	.	.
.	.	32b-\	.	.	.	.	.	.	.	.	.	.
8BBB-X/ 8BB-X	.	32ee-\ 32gg 32bb-	.	.	.	.	.	.	.	.	.	.
.	.	32b-\	.	.	.	.	.	.	.	.	.	.
.	.	32ee-\ 32gg 32bb-	.	.	.	.	.	.	.	.	.	.
.	.	32b-\	.	.	.	.	.	.	.	.	.	.
8EE-X/ 8E-X	.	32ee-\ 32gg 32bb-	.	.	.	.	.	.	.	.	.	.
.	.	32b-\	.	.	.	.	.	.	.	.	.	.
.	.	32ee-\ 32gg 32bb-	.	.	.	.	.	.	.	.	.	.
.	.	32b-\	.	.	.	.	.	.	.	.	.	.
8GG/ 8G	.	32ee-\ 32gg 32bb-	.	.	.	.	.	.	.	.	.	.
.	.	32b-\	.	.	.	.	.	.	.	.	.	.
.	.	32ee-\ 32gg 32bb-	.	.	.	.	.	.	.	.	.	.
.	.	32b-\	.	.	.	.	.	.	.	.	.	.
8BB-/ 8B-X	.	32ee-\ 32gg 32bb-	.	.	.	.	.	.	.	.	.	.
.	.	32b-\	.	.	.	.	.	.	.	.	.	.
.	.	32ee-\ 32gg 32bb-	.	.	.	.	.	.	.	.	.	.
.	.	32b-\	.	.	.	.	.	.	.	.	.	.
8E-/J 8e-X	.	32ee-\ 32gg 32bb-	.	.	.	.	.	.	.	.	.	.
.	.	32b-\	.	.	.	.	.	.	.	.	.	.
.	.	32ee-\ 32gg 32bb-	.	.	.	.	.	.	.	.	.	.
.	.	32b-X\JJJ	.	.	.	.	.	.	.	.	.	.
=152	=152	=152	=152	=152	=152	=152	=152	=152	=152	=152	=152	=152
8BB-X\ 8B-X	.	8b-X\ 8ee-X 8gg 8bb-X	.	.	2.ryy	.	.	.	2.ryy	.	.	.
8B-^\L	.	8b-^\L 8bb-	.	.	.	.	.	.	.	.	.	.
8G^\	.	8g^\ 8gg	.	.	.	.	.	.	.	.	.	.
8E-X^\	.	8e-X^\ 8ee-	.	.	.	.	.	.	.	.	.	.
8BB-^\	.	8B-X^\ 8b-	.	.	.	.	.	.	.	.	.	.
8GG^\J	.	8G^\J 8g	.	.	.	.	.	.	.	.	.	.
=153	=153	=153	=153	=153	=153	=153	=153	=153	=153	=153	=153	=153
!	!	!LO:TX:a:i:t=molto rall.	!	!	!	!	!	!	!	!	!	!
4EE-X^/ 4E-X	.	4e-X^t/	.	.	2.ryy	.	.	.	2.ryy	.	.	.
4DD^/ 4D	.	4d^t/	.	.	.	.	.	.	.	.	.	.
4CC#X^/ 4C#X	.	4c#X^t/	.	.	.	.	.	.	.	.	.	.
=154	=154	=154	=154	=154	=154	=154	=154	=154	=154	=154	=154	=154
4CCn^/ 4Cn	.	4cn^/	.	.	2.ryy	.	.	.	2.ryy	.	.	.
4BBBn^/ 4BBn	.	4G^/ 4d 4fn 4g	.	.	.	.	.	.	.	.	.	.
4CC^/ 4C	.	4c^/ 4e 4g 4a	.	.	.	.	.	.	.	.	.	.
=155	=155	=155	=155	=155	=155	=155	=155	=155	=155	=155	=155	=155
!	!	!LO:TX:a:i:t=a tempo	!	!	!	!	!	!	!	!	!	!
2GGG/ 2GG	.	8B/ 8d 8g 8b	.	.	2.ryy	.	.	.	2.ryy	.	.	.
.	.	8G/L 8B 8d	.	.	.	.	.	.	.	.	.	.
.	.	8B/ 8d 8g	.	.	.	.	.	.	.	.	.	.
.	.	8d/ 8g 8b	.	.	.	.	.	.	.	.	.	.
4B\ 4d	.	8g/ 8b 8dd	.	.	.	.	.	.	.	.	.	.
.	.	8b/J 8dd 8gg	.	.	.	.	.	.	.	.	.	.
=156	=156	=156	=156	=156	=156	=156	=156	=156	=156	=156	=156	=156
4G\ 4g	.	4dd\ 4gg 4bb	.	.	2.ryy	.	.	.	2.ryy	.	.	.
4r	.	4r	.	.	.	.	.	.	.	.	.	.
8.GG/L 8.BB 8.D 8.G	.	8.g\L 8.b 8.dd 8.gg	.	.	.	.	.	.	.	.	.	.
16GG/Jk 16BB 16D 16G	.	16g\Jk 16b 16dd 16gg	.	.	.	.	.	.	.	.	.	.
=157	=157	=157	=157	=157	=157	=157	=157	=157	=157	=157	=157	=157
4GG/ 4BB 4D 4G	.	4g\ 4b 4dd 4gg	.	.	2.ryy	.	.	.	2.ryy	.	.	.
4r	.	4r	.	.	.	.	.	.	.	.	.	.
8.GGG/L 8.GG	.	8.G/L 8.g	.	.	.	.	.	.	.	.	.	.
16GGG/Jk 16GG	.	16G/Jk 16g	.	.	.	.	.	.	.	.	.	.
=158	=158	=158	=158	=158	=158	=158	=158	=158	=158	=158	=158	=158
2.GGG;/ 2.GG	.	2.G;/ 2.g	.	.	2.ryy	.	.	.	2.ryy	.	.	.
==	==	==	==	==	==	==	==	==	==	==	==	==
*-	*-	*-	*-	*-	*-	*-	*-	*-	*-	*-	*-	*-
!!!system-decoration: s1,s2{(s3,s4)}
!!!RDF**kern: N = linked
!!!RDF**kern: > = above
!!!RDF**kern: < = below
!!!ENC: Andrzej Gręziak
!!!END: 2022-08-30
!!!ENC: Natalia Wrzos
!!!END: 2022-10-10
!!!YEC: Copyright 2022 Narodowy Instytut Fryderyka Chopina (https://polishscores.org)
!!!YEM: License CC-BY-4.0 (https://creativecommons.org/licenses/by/4.0)
